; generated by SuperSlicer 2.3.56 on 2021-11-07 at 17:05:55 UTC

; 

; external perimeters extrusion width = 0.60mm
; perimeters extrusion width = 0.60mm
; infill extrusion width = 0.60mm
; solid infill extrusion width = 0.60mm
; top infill extrusion width = 0.60mm
; support material extrusion width = 0.60mm
; first layer extrusion width = 0.60mm


;TYPE:Custom
M83						; extruder relative mode
G28 					                ; home all axes
M109 S205                                           ; hotend temperature
M140 S60 	                                ; heatbed temperature
ROUGE
M190 S60 	                                ; wait for the bed to heat up
M109 S205                                            ; wait for the extruder to heat up
VERT
FULL
G92 E0 					                ; reset extruder
G1 X20 Y5 Z0.3 F5000.0				; move to start-line position
G1 Z0.3 F1000 				                 ; print height
G1 X200 Y5 F1500.0 E15 				 ; draw 1st line
G1 X200 Y5.3 Z0.3 F5000.0				; move to side a little
G1 X5.3  Y5.3 Z0.3 F1500.0 E30 			; draw 2nd line
G1 Z3 F3000 					; move z up little to prevent scratching of surface
M107
G21 ; set units to millimeters
G90 ; use absolute coordinates
M83 ; use relative distances for extrusion
; Filament gcode
;LAYER_CHANGE
;Z:0.2
;HEIGHT:0.2
G1 Z0.200000 F6600
G1 E-2.35000 F3600
G1 Z0.800000 F6600
G1 X74.092 Y110.716
G1 Z0.200000
G1 E2.35000 F3600
;TYPE:Skirt
;WIDTH:0.6
G1 F1200
G1 X75.515 Y110.097 E0.07186
G1 X81.808 Y109.988 E0.29156
G1 X82.408 Y109.727 E0.03028
G1 X83.158 Y109.564 E0.03558
G1 X90.636 Y109.433 E0.34644
G1 X91.392 Y109.570 E0.03558
G1 X92.000 Y109.810 E0.03028
G1 X95.806 Y109.743 E0.17632
G1 X96.406 Y109.483 E0.03028
G1 X97.156 Y109.320 E0.03558
G1 X104.634 Y109.189 E0.34644
G1 X105.390 Y109.326 E0.03558
G1 X105.998 Y109.565 E0.03028
G1 X109.804 Y109.499 E0.17632
G1 X110.403 Y109.238 E0.03028
G1 X111.154 Y109.075 E0.03558
G1 X118.632 Y108.945 E0.34644
G1 X119.388 Y109.081 E0.03558
G1 X119.996 Y109.321 E0.03028
G1 X123.802 Y109.255 E0.17632
G1 X124.401 Y108.994 E0.03028
G1 X125.152 Y108.831 E0.03558
G1 X132.630 Y108.700 E0.34644
G1 X133.386 Y108.837 E0.03558
G1 X133.994 Y109.077 E0.03028
G1 X137.800 Y109.010 E0.17632
G1 X138.399 Y108.750 E0.03028
G1 X139.150 Y108.587 E0.03558
G1 X146.628 Y108.456 E0.34644
G1 X147.384 Y108.593 E0.03558
G1 X147.992 Y108.832 E0.03028
G1 X154.285 Y108.722 E0.29156
G1 X155.728 Y109.291 E0.07186
G1 X157.010 Y110.529 E0.08255
G1 X157.629 Y111.952 E0.07186
G1 X157.714 Y116.833 E0.22615
G1 X157.146 Y118.276 E0.07186
G1 X155.908 Y119.558 E0.08255
G1 X154.485 Y120.177 E0.07186
G1 X75.715 Y121.552 E3.64929
G1 X74.272 Y120.983 E0.07186
G1 X72.990 Y119.745 E0.08255
G1 X72.371 Y118.323 E0.07186
G1 X72.286 Y113.441 E0.22615
G1 X72.854 Y111.998 E0.07186
G1 X74.030 Y110.781 E0.07838
G1 X74.416 Y111.183 F6600
G1 F1200
G1 X75.635 Y110.652 E0.06159
G1 X81.929 Y110.543 E0.29156
G1 X82.580 Y110.260 E0.03287
G1 X83.223 Y110.120 E0.03050
G1 X90.591 Y109.991 E0.34135
G1 X91.239 Y110.108 E0.03050
G1 X91.899 Y110.369 E0.03287
G1 X95.927 Y110.298 E0.18659
G1 X96.577 Y110.015 E0.03287
G1 X97.221 Y109.876 E0.03050
G1 X104.589 Y109.747 E0.34135
G1 X105.237 Y109.864 E0.03050
G1 X105.897 Y110.124 E0.03287
G1 X109.925 Y110.054 E0.18659
G1 X110.575 Y109.771 E0.03287
G1 X111.219 Y109.631 E0.03050
G1 X118.587 Y109.503 E0.34135
G1 X119.235 Y109.620 E0.03050
G1 X119.895 Y109.880 E0.03287
G1 X123.922 Y109.810 E0.18659
G1 X124.573 Y109.527 E0.03287
G1 X125.217 Y109.387 E0.03050
G1 X132.585 Y109.258 E0.34135
G1 X133.233 Y109.375 E0.03050
G1 X133.893 Y109.636 E0.03287
G1 X137.920 Y109.565 E0.18659
G1 X138.571 Y109.282 E0.03287
G1 X139.214 Y109.143 E0.03050
G1 X146.583 Y109.014 E0.34135
G1 X147.230 Y109.131 E0.03050
G1 X147.891 Y109.391 E0.03287
G1 X154.184 Y109.281 E0.29156
G1 X155.421 Y109.769 E0.06159
G1 X156.544 Y110.853 E0.07228
G1 X157.074 Y112.072 E0.06159
G1 X157.155 Y116.732 E0.21588
G1 X156.668 Y117.969 E0.06159
G1 X155.584 Y119.092 E0.07228
G1 X154.365 Y119.622 E0.06159
G1 X75.816 Y120.993 E3.63903
G1 X74.579 Y120.506 E0.06159
G1 X73.456 Y119.422 E0.07228
G1 X72.926 Y118.202 E0.06159
G1 X72.845 Y113.542 E0.21588
G1 X73.332 Y112.305 E0.06159
G1 X74.354 Y111.247 E0.06811
G1 X74.740 Y111.649 F6600
G1 F1200
G1 X75.756 Y111.207 E0.05133
G1 X82.087 Y111.097 E0.29329
G1 X82.147 Y111.055 E0.00338
G1 X82.751 Y110.792 E0.03055
G1 X83.288 Y110.676 E0.02542
G1 X90.546 Y110.549 E0.33627
G1 X91.086 Y110.647 E0.02542
G1 X91.699 Y110.889 E0.03055
G1 X91.761 Y110.928 E0.00338
G1 X96.084 Y110.853 E0.20030
G1 X96.144 Y110.811 E0.00338
G1 X96.749 Y110.548 E0.03055
G1 X97.285 Y110.432 E0.02542
G1 X104.544 Y110.305 E0.33627
G1 X105.084 Y110.403 E0.02541
G1 X105.697 Y110.644 E0.03055
G1 X105.759 Y110.684 E0.00338
G1 X110.082 Y110.608 E0.20030
G1 X110.142 Y110.567 E0.00338
G1 X110.747 Y110.304 E0.03055
G1 X111.283 Y110.187 E0.02542
G1 X118.542 Y110.061 E0.33627
G1 X119.082 Y110.158 E0.02542
G1 X119.695 Y110.400 E0.03055
G1 X119.757 Y110.439 E0.00338
G1 X124.080 Y110.364 E0.20030
G1 X124.140 Y110.322 E0.00338
G1 X124.745 Y110.059 E0.03055
G1 X125.281 Y109.943 E0.02542
G1 X132.540 Y109.816 E0.33627
G1 X133.079 Y109.914 E0.02541
G1 X133.693 Y110.156 E0.03055
G1 X133.755 Y110.195 E0.00338
G1 X138.078 Y110.120 E0.20030
G1 X138.138 Y110.078 E0.00338
G1 X138.743 Y109.815 E0.03055
G1 X139.279 Y109.699 E0.02542
G1 X146.537 Y109.572 E0.33627
G1 X147.077 Y109.670 E0.02542
G1 X147.691 Y109.911 E0.03055
G1 X147.752 Y109.951 E0.00338
G1 X154.083 Y109.840 E0.29329
G1 X155.114 Y110.246 E0.05133
G1 X156.077 Y111.176 E0.06202
G1 X156.519 Y112.193 E0.05133
G1 X156.596 Y116.631 E0.20561
G1 X156.190 Y117.662 E0.05133
G1 X155.260 Y118.625 E0.06202
G1 X154.244 Y119.067 E0.05133
G1 X75.917 Y120.434 E3.62876
G1 X74.886 Y120.028 E0.05133
G1 X73.923 Y119.098 E0.06202
G1 X73.481 Y118.082 E0.05133
G1 X73.404 Y113.643 E0.20561
G1 X73.810 Y112.612 E0.05133
G1 X74.677 Y111.714 E0.05785
G1 X75.064 Y112.116 F6600
G1 F1200
G1 X75.877 Y111.763 E0.04106
G1 X82.265 Y111.651 E0.29598
G1 X82.419 Y111.544 E0.00867
G1 X82.923 Y111.325 E0.02547
G1 X83.352 Y111.232 E0.02033
G1 X90.501 Y111.107 E0.33119
G1 X90.933 Y111.185 E0.02033
G1 X91.444 Y111.387 E0.02547
G1 X91.602 Y111.488 E0.00867
G1 X96.263 Y111.407 E0.21596
G1 X96.417 Y111.300 E0.00867
G1 X96.921 Y111.081 E0.02547
G1 X97.350 Y110.988 E0.02033
G1 X104.499 Y110.863 E0.33119
G1 X104.931 Y110.941 E0.02033
G1 X105.442 Y111.142 E0.02547
G1 X105.600 Y111.244 E0.00867
G1 X110.261 Y111.162 E0.21596
G1 X110.415 Y111.056 E0.00867
G1 X110.919 Y110.836 E0.02547
G1 X111.348 Y110.743 E0.02033
G1 X118.497 Y110.619 E0.33119
G1 X118.928 Y110.697 E0.02033
G1 X119.440 Y110.898 E0.02547
G1 X119.597 Y110.999 E0.00867
G1 X124.259 Y110.918 E0.21596
G1 X124.413 Y110.811 E0.00867
G1 X124.917 Y110.592 E0.02547
G1 X125.346 Y110.499 E0.02033
G1 X132.494 Y110.374 E0.33119
G1 X132.926 Y110.452 E0.02033
G1 X133.438 Y110.654 E0.02547
G1 X133.595 Y110.755 E0.00867
G1 X138.257 Y110.674 E0.21596
G1 X138.411 Y110.567 E0.00867
G1 X138.915 Y110.348 E0.02547
G1 X139.344 Y110.255 E0.02033
G1 X146.492 Y110.130 E0.33119
G1 X146.924 Y110.208 E0.02033
G1 X147.436 Y110.409 E0.02547
G1 X147.593 Y110.511 E0.00867
G1 X153.982 Y110.399 E0.29598
G1 X154.807 Y110.724 E0.04106
G1 X155.610 Y111.500 E0.05175
G1 X155.964 Y112.313 E0.04106
G1 X156.037 Y116.530 E0.19535
G1 X155.713 Y117.355 E0.04106
G1 X154.936 Y118.158 E0.05175
G1 X154.123 Y118.512 E0.04106
G1 X76.018 Y119.875 E3.61850
G1 X75.193 Y119.550 E0.04106
G1 X74.390 Y118.774 E0.05175
G1 X74.036 Y117.961 E0.04106
G1 X73.963 Y113.745 E0.19535
G1 X74.287 Y112.920 E0.04106
G1 X75.001 Y112.181 E0.04758
G1 X75.387 Y112.583 F6600
G1 F1200
G1 X75.997 Y112.318 E0.03080
G1 X82.444 Y112.205 E0.29867
G1 X82.691 Y112.033 E0.01396
G1 X83.095 Y111.858 E0.02038
G1 X83.417 Y111.788 E0.01525
G1 X90.456 Y111.665 E0.32610
G1 X90.780 Y111.724 E0.01525
G1 X91.189 Y111.885 E0.02038
G1 X91.442 Y112.048 E0.01396
G1 X96.442 Y111.961 E0.23161
G1 X96.689 Y111.789 E0.01396
G1 X97.093 Y111.614 E0.02038
G1 X97.415 Y111.544 E0.01525
G1 X104.454 Y111.421 E0.32610
G1 X104.777 Y111.479 E0.01525
G1 X105.187 Y111.641 E0.02038
G1 X105.440 Y111.804 E0.01396
G1 X110.440 Y111.716 E0.23161
G1 X110.687 Y111.545 E0.01396
G1 X111.091 Y111.369 E0.02038
G1 X111.412 Y111.299 E0.01525
G1 X118.451 Y111.177 E0.32610
G1 X118.775 Y111.235 E0.01525
G1 X119.185 Y111.396 E0.02038
G1 X119.438 Y111.559 E0.01396
G1 X124.438 Y111.472 E0.23161
G1 X124.685 Y111.300 E0.01396
G1 X125.089 Y111.125 E0.02038
G1 X125.410 Y111.055 E0.01525
G1 X132.449 Y110.932 E0.32610
G1 X132.773 Y110.991 E0.01525
G1 X133.183 Y111.152 E0.02038
G1 X133.436 Y111.315 E0.01396
G1 X138.435 Y111.228 E0.23161
G1 X138.683 Y111.056 E0.01396
G1 X139.086 Y110.881 E0.02038
G1 X139.408 Y110.811 E0.01525
G1 X146.447 Y110.688 E0.32610
G1 X146.771 Y110.746 E0.01525
G1 X147.181 Y110.908 E0.02038
G1 X147.434 Y111.071 E0.01396
G1 X153.881 Y110.958 E0.29868
G1 X154.499 Y111.202 E0.03080
G1 X155.144 Y111.824 E0.04149
G1 X155.409 Y112.434 E0.03080
G1 X155.478 Y116.429 E0.18508
G1 X155.235 Y117.047 E0.03080
G1 X154.613 Y117.692 E0.04149
G1 X154.003 Y117.957 E0.03080
G1 X76.119 Y119.316 E3.60823
G1 X75.501 Y119.072 E0.03080
G1 X74.856 Y118.450 E0.04149
G1 X74.591 Y117.841 E0.03080
G1 X74.522 Y113.846 E0.18508
G1 X74.765 Y113.227 E0.03080
G1 X75.325 Y112.647 E0.03732
G1 X75.711 Y113.049 F6600
G1 F1200
G1 X76.118 Y112.873 E0.02053
G1 X82.677 Y112.758 E0.30387
G1 X82.784 Y112.647 E0.00713
G1 X82.964 Y112.522 E0.01017
G1 X83.267 Y112.391 E0.01530
G1 X83.481 Y112.344 E0.01017
G1 X90.411 Y112.223 E0.32102
G1 X90.627 Y112.262 E0.01017
G1 X90.934 Y112.383 E0.01530
G1 X91.118 Y112.502 E0.01017
G1 X91.229 Y112.609 E0.00713
G1 X96.675 Y112.514 E0.25228
G1 X96.781 Y112.403 E0.00713
G1 X96.962 Y112.278 E0.01017
G1 X97.265 Y112.146 E0.01530
G1 X97.479 Y112.100 E0.01017
G1 X104.408 Y111.979 E0.32102
G1 X104.624 Y112.018 E0.01017
G1 X104.932 Y112.139 E0.01530
G1 X105.116 Y112.258 E0.01017
G1 X105.227 Y112.365 E0.00713
G1 X110.672 Y112.270 E0.25228
G1 X110.779 Y112.159 E0.00713
G1 X110.960 Y112.034 E0.01017
G1 X111.263 Y111.902 E0.01530
G1 X111.477 Y111.855 E0.01017
G1 X118.406 Y111.734 E0.32102
G1 X118.622 Y111.774 E0.01017
G1 X118.930 Y111.895 E0.01530
G1 X119.114 Y112.013 E0.01017
G1 X119.225 Y112.120 E0.00713
G1 X124.670 Y112.025 E0.25228
G1 X124.777 Y111.914 E0.00713
G1 X124.958 Y111.789 E0.01017
G1 X125.260 Y111.658 E0.01530
G1 X125.475 Y111.611 E0.01017
G1 X132.404 Y111.490 E0.32102
G1 X132.620 Y111.529 E0.01017
G1 X132.927 Y111.650 E0.01530
G1 X133.112 Y111.769 E0.01017
G1 X133.223 Y111.876 E0.00713
G1 X138.668 Y111.781 E0.25228
G1 X138.775 Y111.670 E0.00713
G1 X138.955 Y111.545 E0.01017
G1 X139.258 Y111.413 E0.01530
G1 X139.473 Y111.367 E0.01017
G1 X146.402 Y111.246 E0.32102
G1 X146.618 Y111.285 E0.01017
G1 X146.925 Y111.406 E0.01530
G1 X147.110 Y111.525 E0.01017
G1 X147.221 Y111.632 E0.00713
G1 X153.780 Y111.517 E0.30387
G1 X154.192 Y111.680 E0.02053
G1 X154.677 Y112.148 E0.03122
G1 X154.854 Y112.554 E0.02053
G1 X154.920 Y116.328 E0.17482
G1 X154.757 Y116.740 E0.02053
G1 X154.289 Y117.225 E0.03122
G1 X153.882 Y117.402 E0.02053
G1 X76.220 Y118.757 E3.59797
G1 X75.808 Y118.595 E0.02053
G1 X75.323 Y118.127 E0.03122
G1 X75.146 Y117.720 E0.02053
G1 X75.080 Y113.947 E0.17482
G1 X75.243 Y113.534 E0.02053
G1 X75.649 Y113.114 E0.02705
G1 X76.035 Y113.516 F6600
G1 F1200
G1 X76.238 Y113.428 E0.01027
G1 X82.917 Y113.311 E0.30943
G1 X83.146 Y113.074 E0.01528
G1 X83.236 Y113.011 E0.00508
G1 X83.439 Y112.923 E0.01022
G1 X83.546 Y112.900 E0.00508
G1 X90.365 Y112.781 E0.31594
G1 X90.473 Y112.801 E0.00508
G1 X90.679 Y112.881 E0.01022
G1 X90.771 Y112.941 E0.00508
G1 X91.008 Y113.170 E0.01528
G1 X96.915 Y113.067 E0.27365
G1 X97.144 Y112.830 E0.01528
G1 X97.234 Y112.767 E0.00508
G1 X97.437 Y112.679 E0.01022
G1 X97.544 Y112.656 E0.00508
G1 X104.363 Y112.537 E0.31594
G1 X104.471 Y112.556 E0.00508
G1 X104.676 Y112.637 E0.01022
G1 X104.769 Y112.696 E0.00508
G1 X105.006 Y112.926 E0.01528
G1 X110.913 Y112.822 E0.27365
G1 X111.142 Y112.585 E0.01528
G1 X111.232 Y112.523 E0.00508
G1 X111.434 Y112.435 E0.01022
G1 X111.542 Y112.411 E0.00508
G1 X118.361 Y112.292 E0.31594
G1 X118.469 Y112.312 E0.00508
G1 X118.674 Y112.393 E0.01022
G1 X118.767 Y112.452 E0.00508
G1 X119.004 Y112.681 E0.01528
G1 X124.911 Y112.578 E0.27365
G1 X125.140 Y112.341 E0.01528
G1 X125.230 Y112.278 E0.00508
G1 X125.432 Y112.190 E0.01022
G1 X125.539 Y112.167 E0.00508
G1 X132.359 Y112.048 E0.31594
G1 X132.467 Y112.068 E0.00508
G1 X132.672 Y112.148 E0.01022
G1 X132.764 Y112.208 E0.00508
G1 X133.002 Y112.437 E0.01528
G1 X138.909 Y112.334 E0.27365
G1 X139.138 Y112.097 E0.01528
G1 X139.228 Y112.034 E0.00508
G1 X139.430 Y111.946 E0.01022
G1 X139.537 Y111.923 E0.00508
G1 X146.357 Y111.804 E0.31594
G1 X146.465 Y111.823 E0.00508
G1 X146.670 Y111.904 E0.01022
G1 X146.762 Y111.963 E0.00508
G1 X147.000 Y112.193 E0.01528
G1 X153.679 Y112.076 E0.30943
G1 X153.885 Y112.157 E0.01027
G1 X154.210 Y112.471 E0.02095
G1 X154.299 Y112.675 E0.01027
G1 X154.361 Y116.227 E0.16455
G1 X154.279 Y116.433 E0.01027
G1 X153.965 Y116.758 E0.02095
G1 X153.762 Y116.847 E0.01027
G1 X76.321 Y118.198 E3.58770
G1 X76.115 Y118.117 E0.01027
G1 X75.790 Y117.803 E0.02095
G1 X75.701 Y117.600 E0.01027
G1 X75.639 Y114.048 E0.16455
G1 X75.721 Y113.842 E0.01027
G1 X75.972 Y113.581 E0.01679
G1 X76.359 Y113.983 F6600
G1 F1200
G1 X83.204 Y113.863 E0.31714
G1 X83.235 Y113.784 E0.00397
G1 X83.509 Y113.500 E0.01823
G1 X83.610 Y113.456 E0.00513
G1 X90.320 Y113.339 E0.31085
G1 X90.423 Y113.380 E0.00513
G1 X90.707 Y113.653 E0.01823
G1 X90.741 Y113.732 E0.00397
G1 X97.202 Y113.619 E0.29933
G1 X97.233 Y113.539 E0.00397
G1 X97.507 Y113.256 E0.01823
G1 X97.608 Y113.212 E0.00513
G1 X104.318 Y113.095 E0.31085
G1 X104.421 Y113.135 E0.00513
G1 X104.704 Y113.409 E0.01823
G1 X104.739 Y113.487 E0.00397
G1 X111.200 Y113.375 E0.29933
G1 X111.231 Y113.295 E0.00397
G1 X111.505 Y113.012 E0.01823
G1 X111.606 Y112.967 E0.00513
G1 X118.316 Y112.850 E0.31085
G1 X118.419 Y112.891 E0.00513
G1 X118.702 Y113.164 E0.01823
G1 X118.736 Y113.243 E0.00397
G1 X125.198 Y113.130 E0.29933
G1 X125.229 Y113.051 E0.00397
G1 X125.502 Y112.767 E0.01823
G1 X125.604 Y112.723 E0.00513
G1 X132.314 Y112.606 E0.31085
G1 X132.417 Y112.647 E0.00513
G1 X132.700 Y112.920 E0.01823
G1 X132.734 Y112.999 E0.00397
G1 X139.195 Y112.886 E0.29933
G1 X139.227 Y112.806 E0.00397
G1 X139.500 Y112.523 E0.01823
G1 X139.602 Y112.479 E0.00513
G1 X146.312 Y112.362 E0.31085
G1 X146.415 Y112.402 E0.00513
G1 X146.698 Y112.676 E0.01823
G1 X146.732 Y112.754 E0.00397
G1 X153.578 Y112.635 E0.31714
G1 X153.744 Y112.795 E0.01069
G1 X153.802 Y116.125 E0.15429
G1 X153.641 Y116.291 E0.01069
G1 X76.422 Y117.639 E3.57743
G1 X76.256 Y117.479 E0.01069
G1 X76.198 Y114.149 E0.15429
G1 X76.296 Y114.048 E0.00652
;WIPE_START
G1 F5280
G1 X79.742 Y113.956 E-2.23250
;WIPE_END
G1 E-0.11750 F3600
G1 Z0.800000 F6600
G1 X76.296 Y114.048
G1 X76.296 Y114.048
G1 X112.905 Y114.638
G1 Z0.200000
G1 E2.35000 F3600
;TYPE:Internal perimeter
G1 F1200
G1 X117.076 Y114.565 E0.19324
G1 X117.088 Y115.237 E0.03111
G1 X112.917 Y115.309 E0.19324
G1 X112.907 Y114.728 E0.02694
;WIPE_START
G1 F5280
G1 X116.351 Y114.593 E-2.23250
;WIPE_END
G1 E-0.11750 F3600
G1 Z0.400000 F6600
G1 X112.907 Y114.728
G1 X112.907 Y114.728
G1 X126.905 Y114.483
G1 Z0.200000
G1 E2.35000 F3600
G1 F1200
G1 X126.903 Y114.393 E0.00417
G1 X131.074 Y114.321 E0.19324
G1 X131.086 Y114.992 E0.03111
G1 X126.915 Y115.065 E0.19324
G1 X126.906 Y114.573 E0.02278
;WIPE_START
G1 F5280
G1 X126.903 Y114.393 E-0.11655
G1 X130.169 Y114.336 E-2.11595
;WIPE_END
G1 E-0.11750 F3600
G1 Z0.400000 F6600
G1 X126.906 Y114.573
G1 X126.906 Y114.573
G1 X140.904 Y114.329
G1 Z0.200000
G1 E2.35000 F3600
G1 F1200
G1 X140.901 Y114.149 E0.00833
G1 X145.072 Y114.076 E0.19324
G1 X145.084 Y114.748 E0.03111
G1 X140.913 Y114.821 E0.19324
G1 X140.906 Y114.419 E0.01861
;WIPE_START
G1 F5280
G1 X140.901 Y114.149 E-0.17479
G1 X144.077 Y114.094 E-2.05771
;WIPE_END
G1 E-0.11750 F3600
G1 Z0.400000 F6600
G1 X140.906 Y114.419
G1 X140.906 Y114.419
G1 X103.083 Y115.079
G1 Z0.200000
