; generated by SuperSlicer 2.3.56 on 2021-10-26 at 15:20:55 UTC

; 

; external perimeters extrusion width = 0.60mm
; perimeters extrusion width = 0.60mm
; infill extrusion width = 0.60mm
; solid infill extrusion width = 0.60mm
; top infill extrusion width = 0.60mm
; support material extrusion width = 0.40mm
; first layer extrusion width = 0.60mm


;TYPE:Custom
M83						; extruder relative mode
G28 					                ; home all axes
M109 S205                                           ; hotend temperature
M140 S60 	                                ; heatbed temperature
ROUGE
M190 S60 	                                ; wait for the bed to heat up
M109 S205                                            ; wait for the extruder to heat up
VERT
FULL
G92 E0 					                ; reset extruder
G1 X20 Y5 Z0.3 F5000.0				; move to start-line position
G1 Z0.3 F1000 				                 ; print height
G1 X200 Y5 F1500.0 E15 				 ; draw 1st line
G1 X200 Y5.3 Z0.3 F5000.0				; move to side a little
G1 X5.3  Y5.3 Z0.3 F1500.0 E30 			; draw 2nd line
G1 Z3 F3000 					; move z up little to prevent scratching of surface
M107
G21 ; set units to millimeters
G90 ; use absolute coordinates
M83 ; use relative distances for extrusion
; Filament gcode
;LAYER_CHANGE
;Z:0.2
;HEIGHT:0.2
G1 Z0.200000 F6600
G1 E-2.35000 F3600
G1 Z0.800000 F6600
G1 X83.615 Y81.572
G1 Z0.200000
G1 E2.35000 F3600
;TYPE:Skirt
;WIDTH:0.6
G1 F1200
G1 X95.419 Y69.699 E0.77552
G1 X95.985 Y69.244 E0.03366
G1 X96.730 Y68.886 E0.03827
G1 X105.335 Y66.018 E0.42013
G1 X105.960 Y65.878 E0.02968
G1 X122.799 Y65.851 E0.78002
G1 X123.786 Y65.998 E0.04621
G1 X132.769 Y68.876 E0.43697
G1 X133.868 Y69.480 E0.05805
G1 X140.251 Y75.370 E0.40233
G1 X143.211 Y78.475 E0.19873
G1 X145.681 Y81.653 E0.18642
G1 X149.332 Y87.696 E0.32704
G1 X151.626 Y93.834 E0.30355
G1 X151.813 Y94.787 E0.04495
G1 X151.768 Y135.873 E1.90316
G1 X149.517 Y142.251 E0.31331
G1 X145.590 Y148.477 E0.34095
G1 X143.191 Y151.548 E0.18051
G1 X140.319 Y154.563 E0.19288
G1 X133.489 Y160.789 E0.42811
G1 X132.760 Y161.126 E0.03722
G1 X123.204 Y164.124 E0.46389
G1 X105.806 Y164.099 E0.80590
G1 X96.712 Y161.107 E0.44348
G1 X95.874 Y160.682 E0.04349
G1 X83.981 Y148.863 E0.77669
G1 X83.335 Y147.955 E0.05162
G1 X80.712 Y142.154 E0.29491
G1 X78.420 Y136.541 E0.28086
G1 X78.183 Y135.310 E0.05805
G1 X78.232 Y94.378 E1.89603
G1 X78.403 Y93.756 E0.02989
G1 X80.677 Y87.926 E0.28984
G1 X83.577 Y81.654 E0.32013
G1 X84.071 Y81.893 F6600
G1 F1200
G1 X95.813 Y70.093 E0.77109
G1 X96.292 Y69.709 E0.02846
G1 X96.910 Y69.414 E0.03172
G1 X106.036 Y66.430 E0.44475
G1 X122.799 Y66.408 E0.77649
G1 X123.627 Y66.532 E0.03878
G1 X132.594 Y69.405 E0.43613
G1 X133.518 Y69.913 E0.04885
G1 X139.866 Y75.772 E0.40016
G1 X142.786 Y78.835 E0.19602
G1 X145.216 Y81.961 E0.18341
G1 X148.820 Y87.917 E0.32246
G1 X151.098 Y94.012 E0.30141
G1 X151.257 Y94.817 E0.03802
G1 X151.219 Y135.777 E1.89732
G1 X149.016 Y142.006 E0.30604
G1 X145.140 Y148.149 E0.33644
G1 X142.769 Y151.184 E0.17840
G1 X139.922 Y154.172 E0.19118
G1 X133.192 Y160.318 E0.42215
G1 X132.585 Y160.597 E0.03095
G1 X123.133 Y163.572 E0.45902
G1 X105.902 Y163.550 E0.79818
G1 X96.894 Y160.581 E0.43931
G1 X96.188 Y160.222 E0.03669
G1 X84.372 Y148.467 E0.77205
G1 X83.832 Y147.703 E0.04335
G1 X81.216 Y141.917 E0.29413
G1 X78.936 Y136.329 E0.27956
G1 X78.740 Y135.305 E0.04829
G1 X78.781 Y94.473 E1.89140
G1 X81.190 Y88.144 E0.31370
G1 X84.033 Y81.974 E0.31466
G1 X84.527 Y82.213 F6600
G1 F1200
G1 X96.593 Y70.178 E0.78941
G1 X97.090 Y69.941 E0.02550
G1 X106.108 Y66.982 E0.43967
G1 X122.799 Y66.965 E0.77314
G1 X123.471 Y67.067 E0.03149
G1 X132.418 Y69.934 E0.43519
G1 X133.168 Y70.347 E0.03967
G1 X139.481 Y76.175 E0.39795
G1 X142.361 Y79.196 E0.19338
G1 X144.751 Y82.267 E0.18024
G1 X148.308 Y88.136 E0.31790
G1 X150.571 Y94.192 E0.29944
G1 X150.700 Y94.844 E0.03081
G1 X150.669 Y135.686 E1.89187
G1 X148.514 Y141.764 E0.29870
G1 X144.689 Y147.822 E0.33187
G1 X142.347 Y150.821 E0.17629
G1 X139.527 Y153.779 E0.18929
G1 X132.902 Y159.842 E0.41600
G1 X132.412 Y160.068 E0.02499
G1 X123.065 Y163.019 E0.45402
G1 X105.993 Y163.000 E0.79083
G1 X97.080 Y160.056 E0.43479
G1 X96.504 Y159.763 E0.02996
G1 X84.765 Y148.071 E0.76744
G1 X84.330 Y147.451 E0.03508
G1 X81.721 Y141.681 E0.29332
G1 X79.452 Y136.119 E0.27828
G1 X79.297 Y135.299 E0.03865
G1 X79.331 Y94.564 E1.88689
G1 X81.703 Y88.360 E0.30767
G1 X84.489 Y82.295 E0.30919
;WIPE_START
G1 F5280
G1 X86.925 Y79.856 E-2.23250
;WIPE_END
G1 E-0.11750 F3600
G1 Z0.800000 F6600
G1 X84.489 Y82.295
G1 X84.489 Y82.295
G1 X148.425 Y135.293
G1 Z0.200000
G1 E2.35000 F3600
;TYPE:Support material
G1 F1200
G1 X148.425 Y94.958 E1.86839
G1 X147.311 Y94.958 E0.05161
G1 X147.311 Y135.042 E1.85678
G1 X146.471 Y135.042 E0.03891
G1 X146.471 Y140.757 E0.26469
G1 X146.196 Y140.757 E0.01270
G1 X146.196 Y123.553 E0.79689
G1 X146.042 Y124.467 E0.04296
G1 X145.852 Y125.472 E0.04737
G1 X145.642 Y126.475 E0.04745
G1 X145.411 Y127.474 E0.04751
G1 X145.165 Y128.453 E0.04676
G1 X145.082 Y128.758 E0.01463
G1 X145.082 Y140.757 E0.55580
G1 X143.968 Y140.757 E0.05161
G1 X143.968 Y132.362 E0.38885
G1 X143.658 Y133.219 E0.04220
G1 X143.308 Y134.128 E0.04515
G1 X142.939 Y135.030 E0.04512
G1 X142.854 Y135.226 E0.00992
G1 X142.854 Y146.471 E0.52085
G1 X141.740 Y146.471 E0.05161
G1 X141.740 Y137.645 E0.40880
G1 X141.306 Y138.495 E0.04418
G1 X140.864 Y139.315 E0.04315
G1 X140.626 Y139.736 E0.02241
G1 X140.626 Y149.328 E0.44431
G1 X139.511 Y149.328 E0.05161
G1 X139.511 Y141.591 E0.35840
G1 X139.445 Y141.697 E0.00581
G1 X138.950 Y142.449 E0.04169
G1 X138.440 Y143.188 E0.04162
G1 X138.397 Y143.248 E0.00338
G1 X138.397 Y149.328 E0.28164
G1 X137.899 Y149.328 E0.02306
G1 X137.899 Y152.185 E0.13234
G1 X137.283 Y152.185 E0.02855
G1 X137.283 Y144.740 E0.34488
G1 X136.835 Y145.302 E0.03328
G1 X136.284 Y145.961 E0.03982
G1 X136.169 Y146.093 E0.00812
G1 X136.169 Y152.185 E0.28217
G1 X135.055 Y152.185 E0.05161
G1 X135.055 Y147.326 E0.22508
G1 X134.554 Y147.845 E0.03341
G1 X133.966 Y148.427 E0.03834
G1 X133.941 Y148.450 E0.00159
G1 X133.941 Y155.042 E0.30533
G1 X132.827 Y155.042 E0.05161
G1 X132.827 Y149.475 E0.25787
G1 X132.748 Y149.545 E0.00489
G1 X132.135 Y150.067 E0.03728
G1 X131.712 Y150.410 E0.02520
G1 X131.712 Y157.899 E0.34691
G1 X130.598 Y157.899 E0.05161
G1 X130.598 Y151.264 E0.30736
G1 X130.232 Y151.530 E0.02099
G1 X129.592 Y151.971 E0.03598
G1 X129.484 Y152.042 E0.00600
G1 X129.484 Y157.899 E0.27129
G1 X128.370 Y157.899 E0.05161
G1 X128.370 Y152.748 E0.23861
G1 X128.277 Y152.805 E0.00503
G1 X127.622 Y153.185 E0.03510
G1 X127.256 Y153.384 E0.01930
G1 X127.256 Y157.899 E0.20915
G1 X126.142 Y157.899 E0.05161
G1 X126.142 Y153.958 E0.18256
G1 X125.599 Y154.216 E0.02783
G1 X125.027 Y154.469 E0.02896
G1 X125.027 Y157.899 E0.15887
G1 X123.913 Y157.899 E0.05161
G1 X123.913 Y154.920 E0.13801
G1 X123.547 Y155.058 E0.01813
G1 X122.864 Y155.295 E0.03349
G1 X122.799 Y155.316 E0.00316
G1 X122.799 Y160.756 E0.25200
G1 X121.685 Y160.756 E0.05161
G1 X121.685 Y155.653 E0.23637
G1 X121.467 Y155.715 E0.01050
G1 X120.777 Y155.891 E0.03300
G1 X120.571 Y155.938 E0.00977
G1 X120.571 Y160.756 E0.22320
G1 X119.457 Y160.756 E0.05161
G1 X119.457 Y156.170 E0.21244
G1 X119.366 Y156.187 E0.00429
G1 X118.670 Y156.303 E0.03266
G1 X118.342 Y156.347 E0.01532
G1 X118.342 Y160.756 E0.20422
G1 X117.228 Y160.756 E0.05161
G1 X117.228 Y156.477 E0.19822
G1 X116.552 Y156.529 E0.03143
G1 X116.114 Y156.551 E0.02030
G1 X116.114 Y160.756 E0.19479
G1 X115.000 Y160.756 E0.05161
G1 X115.000 Y156.577 E0.19356
G1 X114.491 Y156.573 E0.02357
G1 X113.886 Y156.553 E0.02806
G1 X113.886 Y160.756 E0.19469
G1 X112.772 Y160.756 E0.05161
G1 X112.772 Y156.475 E0.19828
G1 X112.581 Y156.459 E0.00887
G1 X111.952 Y156.389 E0.02929
G1 X111.658 Y156.348 E0.01379
G1 X111.658 Y160.756 E0.20420
G1 X110.543 Y160.756 E0.05161
G1 X110.543 Y156.170 E0.21245
G1 X110.043 Y156.074 E0.02359
G1 X109.429 Y155.940 E0.02911
G1 X109.429 Y160.756 E0.22311
G1 X108.315 Y160.756 E0.05161
G1 X108.315 Y155.654 E0.23634
G1 X108.154 Y155.610 E0.00776
G1 X107.534 Y155.424 E0.02995
G1 X107.201 Y155.315 E0.01625
G1 X107.201 Y160.756 E0.25206
G1 X106.386 Y160.756 E0.03775
G1 X106.386 Y157.899 E0.13234
G1 X106.087 Y157.899 E0.01386
G1 X106.087 Y154.921 E0.13797
G1 X105.662 Y154.757 E0.02108
G1 X105.052 Y154.505 E0.03057
G1 X104.973 Y154.470 E0.00403
G1 X104.973 Y157.899 E0.15885
G1 X103.858 Y157.899 E0.05161
G1 X103.858 Y153.959 E0.18250
G1 X103.822 Y153.942 E0.00189
G1 X103.221 Y153.640 E0.03115
G1 X102.744 Y153.385 E0.02502
G1 X102.744 Y157.899 E0.20908
G1 X101.630 Y157.899 E0.05161
G1 X101.630 Y152.747 E0.23864
G1 X101.417 Y152.620 E0.01152
G1 X100.831 Y152.251 E0.03204
G1 X100.516 Y152.042 E0.01753
G1 X100.516 Y157.899 E0.27132
G1 X99.402 Y157.899 E0.05161
G1 X99.402 Y151.264 E0.30733
G1 X99.082 Y151.030 E0.01839
G1 X98.516 Y150.594 E0.03305
G1 X98.288 Y150.410 E0.01359
G1 X98.288 Y157.899 E0.34689
G1 X97.815 Y157.899 E0.02191
G1 X97.815 Y155.042 E0.13234
G1 X97.173 Y155.042 E0.02970
G1 X97.173 Y149.474 E0.25791
G1 X96.834 Y149.174 E0.02101
G1 X96.292 Y148.673 E0.03417
G1 X96.059 Y148.448 E0.01498
G1 X96.059 Y155.042 E0.30543
G1 X94.958 Y155.042 E0.05103
G1 X94.958 Y152.185 E0.13234
G1 X94.945 Y152.185 E0.00058
G1 X94.945 Y147.325 E0.22513
G1 X94.690 Y147.056 E0.01714
G1 X94.177 Y146.491 E0.03535
G1 X93.831 Y146.093 E0.02444
G1 X93.831 Y152.185 E0.28218
G1 X92.717 Y152.185 E0.05161
G1 X92.717 Y144.741 E0.34480
G1 X92.671 Y144.684 E0.00340
G1 X92.188 Y144.052 E0.03685
G1 X91.717 Y143.410 E0.03687
G1 X91.603 Y143.246 E0.00925
G1 X91.603 Y149.328 E0.28170
G1 X90.488 Y149.328 E0.05161
G1 X90.489 Y141.590 E0.35844
G1 X90.351 Y141.376 E0.01179
G1 X89.917 Y140.670 E0.03835
G1 X89.497 Y139.956 E0.03838
G1 X89.374 Y139.738 E0.01161
G1 X89.374 Y149.328 E0.44422
G1 X89.243 Y149.328 E0.00606
G1 X89.243 Y146.471 E0.13234
G1 X88.260 Y146.471 E0.04555
G1 X88.260 Y137.644 E0.40885
G1 X87.917 Y136.941 E0.03623
G1 X87.555 Y136.162 E0.03980
G1 X87.204 Y135.366 E0.04032
G1 X87.146 Y135.228 E0.00691
G1 X87.146 Y146.471 E0.52077
G1 X86.386 Y146.471 E0.03519
G1 X86.386 Y140.757 E0.26469
G1 X86.032 Y140.757 E0.01642
G1 X86.032 Y132.359 E0.38898
G1 X85.927 Y132.063 E0.01453
G1 X85.644 Y131.218 E0.04129
G1 X85.374 Y130.358 E0.04175
G1 X85.118 Y129.489 E0.04197
G1 X84.918 Y128.762 E0.03492
G1 X84.918 Y140.757 E0.55560
G1 X83.804 Y140.757 E0.05161
G1 X83.804 Y123.548 E0.79713
G1 X83.745 Y123.189 E0.01685
G1 X83.612 Y122.270 E0.04299
G1 X83.494 Y121.342 E0.04333
G1 X83.392 Y120.406 E0.04365
G1 X83.306 Y119.471 E0.04349
G1 X83.237 Y118.538 E0.04332
G1 X83.184 Y117.598 E0.04360
G1 X83.147 Y116.657 E0.04364
G1 X83.126 Y115.709 E0.04392
G1 X83.122 Y114.667 E0.04825
G1 X83.139 Y113.614 E0.04877
G1 X83.176 Y112.574 E0.04823
G1 X83.233 Y111.530 E0.04844
G1 X83.309 Y110.488 E0.04837
G1 X83.406 Y109.450 E0.04829
G1 X83.523 Y108.417 E0.04818
G1 X83.660 Y107.388 E0.04806
G1 X83.804 Y106.445 E0.04418
G1 X83.804 Y89.243 E0.79680
G1 X84.918 Y89.243 E0.05161
G1 X84.918 Y101.238 E0.55560
G1 X85.153 Y100.386 E0.04094
G1 X85.441 Y99.424 E0.04649
G1 X85.743 Y98.479 E0.04596
G1 X86.032 Y97.639 E0.04117
G1 X86.032 Y89.243 E0.38888
G1 X86.386 Y89.243 E0.01642
G1 X86.386 Y83.529 E0.26469
G1 X87.146 Y83.529 E0.03519
G1 X87.146 Y94.770 E0.52069
G1 X87.521 Y93.913 E0.04332
G1 X87.922 Y93.049 E0.04413
G1 X88.260 Y92.358 E0.03564
G1 X88.260 Y83.529 E0.40896
G1 X89.243 Y83.529 E0.04555
G1 X89.243 Y80.672 E0.13234
G1 X89.374 Y80.672 E0.00606
G1 X89.374 Y90.264 E0.44429
G1 X89.685 Y89.721 E0.02894
G1 X90.156 Y88.938 E0.04236
G1 X90.489 Y88.411 E0.02883
G1 X90.489 Y80.672 E0.35850
G1 X91.603 Y80.672 E0.05161
G1 X91.603 Y86.753 E0.28167
G1 X91.660 Y86.670 E0.00467
G1 X92.181 Y85.958 E0.04087
G1 X92.717 Y85.258 E0.04083
G1 X92.717 Y77.815 E0.34477
G1 X93.831 Y77.815 E0.05161
G1 X93.831 Y83.905 E0.28208
G1 X94.388 Y83.275 E0.03893
G1 X94.945 Y82.673 E0.03800
G1 X94.945 Y77.815 E0.22503
G1 X94.958 Y77.815 E0.00058
G1 X94.958 Y74.958 E0.13234
G1 X96.059 Y74.958 E0.05103
G1 X96.059 Y81.551 E0.30540
G1 X96.151 Y81.461 E0.00595
G1 X96.750 Y80.903 E0.03792
G1 X97.173 Y80.527 E0.02625
G1 X97.173 Y74.958 E0.25794
G1 X97.815 Y74.958 E0.02970
G1 X97.815 Y72.101 E0.13234
G1 X98.288 Y72.101 E0.02191
G1 X98.288 Y79.591 E0.34693
G1 X98.614 Y79.329 E0.01936
G1 X99.242 Y78.851 E0.03656
G1 X99.402 Y78.736 E0.00915
G1 X99.402 Y72.101 E0.30734
G1 X100.516 Y72.101 E0.05161
G1 X100.516 Y77.957 E0.27124
G1 X100.535 Y77.944 E0.00107
G1 X101.181 Y77.527 E0.03562
G1 X101.630 Y77.254 E0.02434
G1 X101.630 Y72.101 E0.23867
G1 X102.744 Y72.101 E0.05161
G1 X102.744 Y76.616 E0.20915
G1 X103.178 Y76.383 E0.02279
G1 X103.858 Y76.041 E0.03530
G1 X103.858 Y72.101 E0.18250
G1 X104.973 Y72.101 E0.05161
G1 X104.973 Y75.532 E0.15893
G1 X105.209 Y75.429 E0.01194
G1 X105.886 Y75.155 E0.03384
G1 X106.087 Y75.080 E0.00993
G1 X106.087 Y72.101 E0.13800
G1 X106.386 Y72.101 E0.01386
G1 X106.386 Y69.244 E0.13234
G1 X107.201 Y69.244 E0.03775
G1 X107.201 Y74.684 E0.25202
G1 X107.273 Y74.660 E0.00352
G1 X107.959 Y74.447 E0.03328
G1 X108.315 Y74.348 E0.01713
G1 X108.315 Y69.244 E0.23641
G1 X109.429 Y69.244 E0.05161
G1 X109.429 Y74.061 E0.22316
G1 X110.055 Y73.924 E0.02967
G1 X110.543 Y73.832 E0.02303
G1 X110.543 Y69.244 E0.21251
G1 X111.658 Y69.244 E0.05161
G1 X111.658 Y73.652 E0.20421
G1 X112.175 Y73.585 E0.02417
G1 X112.772 Y73.524 E0.02778
G1 X112.772 Y69.244 E0.19828
G1 X113.886 Y69.244 E0.05161
G1 X113.886 Y73.449 E0.19481
G1 X114.296 Y73.432 E0.01902
G1 X115.000 Y73.422 E0.03261
G1 X115.000 Y69.244 E0.19352
G1 X116.114 Y69.244 E0.05161
G1 X116.114 Y73.447 E0.19471
G1 X116.714 Y73.482 E0.02781
G1 X117.228 Y73.524 E0.02393
G1 X117.228 Y69.244 E0.19828
G1 X118.342 Y69.244 E0.05161
G1 X118.342 Y73.653 E0.20422
G1 X118.628 Y73.692 E0.01337
G1 X119.255 Y73.793 E0.02941
G1 X119.457 Y73.831 E0.00949
G1 X119.457 Y69.244 E0.21249
G1 X120.571 Y69.244 E0.05161
G1 X120.571 Y74.061 E0.22314
G1 X121.150 Y74.202 E0.02762
G1 X121.685 Y74.346 E0.02566
G1 X121.685 Y69.244 E0.23634
G1 X122.799 Y69.244 E0.05161
G1 X122.799 Y74.686 E0.25207
G1 X123.037 Y74.763 E0.01156
G1 X123.652 Y74.980 E0.03023
G1 X123.913 Y75.080 E0.01297
G1 X123.913 Y72.103 E0.13789
G1 X125.027 Y72.103 E0.05161
G1 X125.027 Y75.531 E0.15881
G1 X125.509 Y75.743 E0.02436
G1 X126.113 Y76.027 E0.03093
G1 X126.142 Y76.041 E0.00147
G1 X126.142 Y72.102 E0.18245
G1 X127.256 Y72.102 E0.05161
G1 X127.256 Y76.615 E0.20904
G1 X127.330 Y76.654 E0.00392
G1 X127.924 Y76.988 E0.03155
G1 X128.370 Y77.253 E0.02401
G1 X128.370 Y72.101 E0.23862
G1 X129.484 Y72.101 E0.05161
G1 X129.484 Y77.959 E0.27134
G1 X129.704 Y78.104 E0.01221
G1 X130.280 Y78.504 E0.03251
G1 X130.598 Y78.736 E0.01822
G1 X130.598 Y72.100 E0.30738
G1 X131.712 Y72.100 E0.05161
G1 X131.712 Y79.590 E0.34696
G1 X132.000 Y79.821 E0.01707
G1 X132.555 Y80.287 E0.03358
G1 X132.827 Y80.527 E0.01678
G1 X132.827 Y74.958 E0.25795
G1 X133.941 Y74.958 E0.05161
G1 X133.941 Y81.552 E0.30546
G1 X134.200 Y81.802 E0.01668
G1 X134.729 Y82.334 E0.03473
G1 X135.055 Y82.676 E0.02189
G1 X135.055 Y77.815 E0.22515
G1 X136.169 Y77.815 E0.05161
G1 X136.169 Y83.907 E0.28218
G1 X136.287 Y84.042 E0.00830
G1 X136.785 Y84.637 E0.03593
G1 X137.283 Y85.258 E0.03692
G1 X137.283 Y77.815 E0.34479
G1 X137.899 Y77.815 E0.02855
G1 X137.899 Y80.672 E0.13234
G1 X138.397 Y80.672 E0.02306
G1 X138.397 Y86.755 E0.28175
G1 X138.706 Y87.193 E0.02481
G1 X139.158 Y87.863 E0.03745
G1 X139.512 Y88.410 E0.03018
G1 X139.512 Y80.672 E0.35844
G1 X140.626 Y80.672 E0.05161
G1 X140.626 Y90.263 E0.44428
G1 X140.878 Y90.710 E0.02377
G1 X141.277 Y91.450 E0.03894
G1 X141.666 Y92.208 E0.03948
G1 X141.740 Y92.358 E0.00771
G1 X141.740 Y83.529 E0.40895
G1 X142.854 Y83.529 E0.05161
G1 X142.854 Y94.774 E0.52086
G1 X143.105 Y95.369 E0.02992
G1 X143.432 Y96.187 E0.04080
G1 X143.743 Y97.011 E0.04080
G1 X143.968 Y97.641 E0.03098
G1 X143.968 Y89.243 E0.38898
G1 X145.082 Y89.243 E0.05161
G1 X145.082 Y101.237 E0.55554
G1 X145.102 Y101.309 E0.00346
G1 X145.330 Y102.194 E0.04233
G1 X145.543 Y103.086 E0.04250
G1 X145.740 Y103.981 E0.04243
G1 X145.923 Y104.892 E0.04307
