; generated by SuperSlicer 2.3.56 on 2021-10-27 at 11:35:47 UTC

; 

; external perimeters extrusion width = 0.60mm
; perimeters extrusion width = 0.60mm
; infill extrusion width = 0.60mm
; solid infill extrusion width = 0.60mm
; top infill extrusion width = 0.60mm
; first layer extrusion width = 0.60mm


;TYPE:Custom
M83						; extruder relative mode
G28 					                ; home all axes
M109 S205                                           ; hotend temperature
M140 S60 	                                ; heatbed temperature
ROUGE
M190 S60 	                                ; wait for the bed to heat up
M109 S205                                            ; wait for the extruder to heat up
VERT
FULL
G92 E0 					                ; reset extruder
G1 X20 Y5 Z0.3 F5000.0				; move to start-line position
G1 Z0.3 F1000 				                 ; print height
G1 X200 Y5 F1500.0 E15 				 ; draw 1st line
G1 X200 Y5.3 Z0.3 F5000.0				; move to side a little
G1 X5.3  Y5.3 Z0.3 F1500.0 E30 			; draw 2nd line
G1 Z3 F3000 					; move z up little to prevent scratching of surface
M107
G21 ; set units to millimeters
G90 ; use absolute coordinates
M83 ; use relative distances for extrusion
; Filament gcode
;LAYER_CHANGE
;Z:0.2
;HEIGHT:0.2
G1 Z0.200000 F6600
G1 E-2.35000 F3600
G1 Z0.800000 F6600
G1 X106.935 Y105.120
G1 Z0.200000
G1 E2.35000 F3600
;TYPE:Skirt
;WIDTH:0.6
G1 F1200
G1 X107.520 Y104.682 E0.03387
G1 X108.190 Y104.377 E0.03408
G1 X108.905 Y104.225 E0.03387
G1 X120.755 Y104.207 E0.54890
G1 X121.636 Y104.325 E0.04120
G1 X122.457 Y104.668 E0.04120
G1 X123.160 Y105.212 E0.04120
G1 X123.696 Y105.916 E0.04099
G1 X124.051 Y106.815 E0.04475
G1 X125.084 Y111.771 E0.23449
G1 X125.140 Y122.546 E0.49912
G1 X124.967 Y123.478 E0.04391
G1 X124.546 Y124.322 E0.04370
G1 X124.036 Y124.907 E0.03597
G1 X123.402 Y125.363 E0.03618
G1 X122.680 Y125.663 E0.03618
G1 X121.914 Y125.789 E0.03597
G1 X108.123 Y125.790 E0.63885
G1 X107.185 Y125.621 E0.04412
G1 X106.328 Y125.196 E0.04433
G1 X105.780 Y124.726 E0.03345
G1 X105.344 Y124.150 E0.03345
G1 X105.039 Y123.495 E0.03345
G1 X104.879 Y122.787 E0.03366
G1 X104.857 Y112.377 E0.48217
G1 X105.949 Y106.815 E0.26258
G1 X106.455 Y105.678 E0.05764
G1 X106.876 Y105.188 E0.02991
G1 X107.293 Y105.558 F6600
G1 F1200
G1 X107.343 Y105.501 E0.00350
G1 X107.840 Y105.140 E0.02846
G1 X108.403 Y104.894 E0.02846
G1 X109.006 Y104.775 E0.02846
G1 X120.754 Y104.764 E0.54418
G1 X121.514 Y104.869 E0.03554
G1 X122.215 Y105.172 E0.03535
G1 X122.809 Y105.651 E0.03535
G1 X123.256 Y106.274 E0.03554
G1 X123.515 Y106.970 E0.03440
G1 X124.545 Y111.920 E0.23418
G1 X124.583 Y122.512 E0.49066
G1 X124.435 Y123.311 E0.03764
G1 X124.064 Y124.039 E0.03783
G1 X123.632 Y124.521 E0.03000
G1 X123.102 Y124.893 E0.03000
G1 X122.501 Y125.134 E0.03000
G1 X121.861 Y125.233 E0.03000
G1 X108.154 Y125.234 E0.63491
G1 X107.343 Y125.087 E0.03821
G1 X106.611 Y124.714 E0.03802
G1 X106.157 Y124.313 E0.02808
G1 X105.796 Y123.821 E0.02827
G1 X105.550 Y123.266 E0.02808
G1 X105.428 Y122.673 E0.02808
G1 X105.415 Y112.350 E0.47816
G1 X106.491 Y106.945 E0.25531
G1 X106.936 Y105.961 E0.04999
G1 X107.233 Y105.625 E0.02079
G1 X107.623 Y106.068 F6600
G1 F1200
G1 X108.152 Y105.604 E0.03263
G1 X109.093 Y105.327 E0.04542
G1 X120.754 Y105.321 E0.54016
G1 X121.383 Y105.411 E0.02944
G1 X121.963 Y105.671 E0.02944
G1 X122.449 Y106.081 E0.02944
G1 X122.802 Y106.610 E0.02944
G1 X122.975 Y107.109 E0.02447
G1 X124.002 Y112.053 E0.23389
G1 X124.027 Y122.482 E0.48310
G1 X123.903 Y123.147 E0.03132
G1 X123.589 Y123.746 E0.03132
G1 X122.810 Y124.417 E0.04761
G1 X121.816 Y124.678 E0.04761
G1 X108.183 Y124.678 E0.63151
G1 X107.510 Y124.555 E0.03166
G1 X106.904 Y124.239 E0.03166
G1 X106.260 Y123.510 E0.04508
G1 X105.978 Y122.578 E0.04508
G1 X105.972 Y112.337 E0.47439
G1 X107.032 Y107.077 E0.24853
G1 X107.412 Y106.253 E0.04204
G1 X107.555 Y106.128 E0.00879
;WIPE_START
G1 F5280
G1 X108.152 Y105.604 E-0.51454
G1 X109.093 Y105.327 E-0.63511
G1 X110.764 Y105.326 E-1.08286
;WIPE_END
G1 E-0.11750 F3600
G1 Z0.800000 F6600
G1 X107.555 Y106.128
G1 X107.555 Y106.128
G1 X110.107 Y113.257
G1 Z0.200000
G1 E2.35000 F3600
;TYPE:Internal perimeter
G1 F1200
G1 X110.107 Y108.457 E0.22234
G1 X119.893 Y108.457 E0.45329
G1 X119.893 Y113.257 E0.22234
G1 X120.893 Y113.257 E0.04632
G1 X120.893 Y121.543 E0.38381
G1 X109.107 Y121.543 E0.54594
G1 X109.107 Y113.257 E0.38381
G1 X110.017 Y113.257 E0.04215
G1 X109.550 Y112.700 F6600
;TYPE:External perimeter
G1 F1200
G1 X109.550 Y107.900 E0.22234
G1 X120.450 Y107.900 E0.50490
G1 X120.450 Y112.700 E0.22234
G1 X121.450 Y112.700 E0.04632
G1 X121.450 Y122.100 E0.43542
G1 X108.550 Y122.100 E0.59755
G1 X108.550 Y112.700 E0.43542
G1 X109.460 Y112.700 E0.04215
G1 X110.150 Y112.700 F6600
;WIPE_START
G1 F5280
G1 X109.525 Y109.254 E-2.23250
;WIPE_END
G1 E-0.11750 F3600
G1 Z0.400000 F6600
G1 X109.460 Y112.700
G1 X109.460 Y112.700
G1 X119.670 Y109.806
G1 Z0.200000
G1 E2.35000 F3600
;TYPE:Solid infill
;WIDTH:0.608381
G1 F1800
G1 X118.795 Y108.931 E0.05815
G1 X118.007 Y108.931 E0.03700
G1 X119.419 Y110.343 E0.09383
G1 X119.419 Y111.131 E0.03700
G1 X117.219 Y108.931 E0.14616
G1 X116.431 Y108.931 E0.03700
G1 X119.419 Y111.919 E0.19849
G1 X119.419 Y112.707 E0.03700
G1 X115.643 Y108.931 E0.25082
G1 X114.856 Y108.931 E0.03700
G1 X120.419 Y114.494 E0.36957
G1 X120.419 Y115.282 E0.03700
G1 X114.068 Y108.931 E0.42190
G1 X113.280 Y108.931 E0.03700
G1 X120.419 Y116.070 E0.47423
G1 X120.419 Y116.858 E0.03700
G1 X112.492 Y108.931 E0.52656
G1 X111.704 Y108.931 E0.03700
G1 X120.419 Y117.646 E0.57889
G1 X120.419 Y118.434 E0.03700
G1 X110.916 Y108.931 E0.63122
G1 X110.581 Y108.931 E0.01577
G1 X110.581 Y109.383 E0.02123
G1 X120.419 Y119.221 E0.65353
G1 X120.419 Y120.009 E0.03700
G1 X110.581 Y110.170 E0.65353
G1 X110.581 Y110.958 E0.03700
G1 X120.419 Y120.797 E0.65353
G1 X120.419 Y121.069 E0.01279
G1 X119.904 Y121.069 E0.02421
G1 X110.581 Y111.746 E0.61929
G1 X110.581 Y112.534 E0.03700
G1 X119.116 Y121.069 E0.56696
G1 X118.328 Y121.069 E0.03700
G1 X110.581 Y113.322 E0.51463
G1 X110.581 Y113.731 E0.01920
G1 X110.202 Y113.731 E0.01780
G1 X117.540 Y121.069 E0.48747
G1 X116.753 Y121.069 E0.03700
G1 X109.581 Y113.897 E0.47639
G1 X109.581 Y114.685 E0.03700
G1 X115.965 Y121.069 E0.42406
G1 X115.177 Y121.069 E0.03700
G1 X109.581 Y115.473 E0.37173
G1 X109.581 Y116.261 E0.03700
G1 X114.389 Y121.069 E0.31940
G1 X113.601 Y121.069 E0.03700
G1 X109.581 Y117.049 E0.26707
G1 X109.581 Y117.837 E0.03700
G1 X112.813 Y121.069 E0.21474
G1 X112.026 Y121.069 E0.03700
G1 X109.581 Y118.624 E0.16241
G1 X109.581 Y119.412 E0.03700
G1 X111.238 Y121.069 E0.11008
G1 X110.450 Y121.069 E0.03700
G1 X109.581 Y120.200 E0.05775
G1 X109.581 Y120.988 E0.03700
G1 X109.913 Y121.320 E0.02207
;LAYER_CHANGE
;Z:0.4
;HEIGHT:0.2
G1 Z0.400000 F6600
G1 X110.107 Y113.257
;TYPE:Internal perimeter
;WIDTH:0.6
G1 F3900
G1 X110.107 Y108.457 E0.22234
G1 X119.893 Y108.457 E0.45329
G1 X119.893 Y113.257 E0.22234
G1 X120.893 Y113.257 E0.04632
G1 X120.893 Y121.543 E0.38381
G1 X109.107 Y121.543 E0.54594
G1 X109.107 Y113.257 E0.38381
G1 X110.017 Y113.257 E0.04215
G1 X109.550 Y112.700 F6600
;TYPE:External perimeter
G1 F2100
G1 X109.550 Y107.900 E0.22234
G1 X120.450 Y107.900 E0.50490
G1 X120.450 Y112.700 E0.22234
G1 X121.450 Y112.700 E0.04632
G1 X121.450 Y122.100 E0.43542
G1 X108.550 Y122.100 E0.59755
G1 X108.550 Y112.700 E0.43542
G1 X109.460 Y112.700 E0.04215
G1 X110.150 Y112.700 F6600
G1 X119.544 Y121.320
;TYPE:Solid infill
;WIDTH:0.604559
G1 F2400
G1 X120.419 Y120.445 E0.05778
G1 X120.419 Y119.657 E0.03677
G1 X119.007 Y121.069 E0.09324
G1 X118.219 Y121.069 E0.03677
G1 X120.419 Y118.869 E0.14524
G1 X120.419 Y118.081 E0.03677
G1 X117.431 Y121.069 E0.19724
G1 X116.643 Y121.069 E0.03677
G1 X120.419 Y117.293 E0.24924
G1 X120.419 Y116.506 E0.03677
G1 X115.856 Y121.069 E0.30124
G1 X115.068 Y121.069 E0.03677
G1 X120.419 Y115.718 E0.35325
G1 X120.419 Y114.930 E0.03677
G1 X114.280 Y121.069 E0.40525
G1 X113.492 Y121.069 E0.03677
G1 X120.419 Y114.142 E0.45725
G1 X120.419 Y113.731 E0.01920
G1 X120.043 Y113.731 E0.01757
G1 X112.704 Y121.069 E0.48441
G1 X111.916 Y121.069 E0.03677
G1 X119.419 Y113.566 E0.49524
G1 X119.419 Y112.779 E0.03677
G1 X111.129 Y121.069 E0.54725
G1 X110.341 Y121.069 E0.03677
G1 X119.419 Y111.991 E0.59925
G1 X119.419 Y111.203 E0.03677
G1 X109.581 Y121.042 E0.64942
G1 X109.581 Y120.254 E0.03677
G1 X119.419 Y110.415 E0.64942
G1 X119.419 Y109.627 E0.03677
G1 X109.581 Y119.466 E0.64942
G1 X109.581 Y118.678 E0.03677
G1 X119.328 Y108.931 E0.64340
G1 X118.540 Y108.931 E0.03677
G1 X109.581 Y117.890 E0.59140
G1 X109.581 Y117.103 E0.03677
G1 X117.753 Y108.931 E0.53940
G1 X116.965 Y108.931 E0.03677
G1 X109.581 Y116.315 E0.48740
G1 X109.581 Y115.527 E0.03677
G1 X116.177 Y108.931 E0.43540
G1 X115.389 Y108.931 E0.03677
G1 X109.581 Y114.739 E0.38339
G1 X109.581 Y113.951 E0.03677
G1 X109.801 Y113.731 E0.01456
G1 X110.581 Y113.731 E0.03637
G1 X110.581 Y112.951 E0.03637
G1 X114.601 Y108.931 E0.26539
G1 X113.813 Y108.931 E0.03677
G1 X110.581 Y112.163 E0.21339
G1 X110.581 Y111.376 E0.03677
G1 X113.026 Y108.931 E0.16138
G1 X112.238 Y108.931 E0.03677
G1 X110.581 Y110.588 E0.10938
G1 X110.581 Y109.800 E0.03677
G1 X111.450 Y108.931 E0.05738
G1 X110.662 Y108.931 E0.03677
G1 X110.330 Y109.263 E0.02193
;LAYER_CHANGE
;Z:0.6
;HEIGHT:0.2
G1 Z0.600000 F6600
G1 X110.107 Y113.257
;TYPE:Internal perimeter
;WIDTH:0.6
G1 F3900
G1 X110.107 Y108.457 E0.22234
G1 X119.893 Y108.457 E0.45329
G1 X119.893 Y113.257 E0.22234
G1 X120.893 Y113.257 E0.04632
G1 X120.893 Y121.543 E0.38381
G1 X109.107 Y121.543 E0.54594
G1 X109.107 Y113.257 E0.38381
G1 X110.017 Y113.257 E0.04215
G1 X109.550 Y112.700 F6600
;TYPE:External perimeter
G1 F2100
G1 X109.550 Y107.900 E0.22234
G1 X120.450 Y107.900 E0.50490
G1 X120.450 Y112.700 E0.22234
G1 X121.450 Y112.700 E0.04632
G1 X121.450 Y122.100 E0.43542
G1 X108.550 Y122.100 E0.59755
G1 X108.550 Y112.700 E0.43542
G1 X109.460 Y112.700 E0.04215
G1 X110.150 Y112.700 F6600
G1 X119.670 Y109.806
;TYPE:Solid infill
;WIDTH:0.608383
G1 F2400
G1 X118.795 Y108.931 E0.05815
G1 X118.007 Y108.931 E0.03700
G1 X119.419 Y110.343 E0.09383
G1 X119.419 Y111.131 E0.03700
G1 X117.219 Y108.931 E0.14616
G1 X116.431 Y108.931 E0.03700
G1 X119.419 Y111.919 E0.19849
G1 X119.419 Y112.707 E0.03700
G1 X115.643 Y108.931 E0.25082
G1 X114.856 Y108.931 E0.03700
G1 X120.419 Y114.494 E0.36957
G1 X120.419 Y115.282 E0.03700
G1 X114.068 Y108.931 E0.42190
G1 X113.280 Y108.931 E0.03700
G1 X120.419 Y116.070 E0.47423
G1 X120.419 Y116.858 E0.03700
G1 X112.492 Y108.931 E0.52656
G1 X111.704 Y108.931 E0.03700
G1 X120.419 Y117.646 E0.57889
G1 X120.419 Y118.434 E0.03700
G1 X110.916 Y108.931 E0.63122
G1 X110.581 Y108.931 E0.01577
G1 X110.581 Y109.383 E0.02123
G1 X120.419 Y119.221 E0.65353
G1 X120.419 Y120.009 E0.03700
G1 X110.581 Y110.170 E0.65353
G1 X110.581 Y110.958 E0.03700
G1 X120.419 Y120.797 E0.65353
G1 X120.419 Y121.069 E0.01279
G1 X119.904 Y121.069 E0.02421
G1 X110.581 Y111.746 E0.61929
G1 X110.581 Y112.534 E0.03700
G1 X119.116 Y121.069 E0.56695
G1 X118.328 Y121.069 E0.03700
G1 X110.581 Y113.322 E0.51462
G1 X110.581 Y113.731 E0.01920
G1 X110.202 Y113.731 E0.01780
G1 X117.540 Y121.069 E0.48747
G1 X116.753 Y121.069 E0.03700
G1 X109.581 Y113.897 E0.47639
G1 X109.581 Y114.685 E0.03700
G1 X115.965 Y121.069 E0.42406
G1 X115.177 Y121.069 E0.03700
G1 X109.581 Y115.473 E0.37173
G1 X109.581 Y116.261 E0.03700
G1 X114.389 Y121.069 E0.31940
G1 X113.601 Y121.069 E0.03700
G1 X109.581 Y117.049 E0.26707
G1 X109.581 Y117.837 E0.03700
G1 X112.813 Y121.069 E0.21474
G1 X112.026 Y121.069 E0.03700
G1 X109.581 Y118.624 E0.16240
G1 X109.581 Y119.412 E0.03700
G1 X111.238 Y121.069 E0.11007
G1 X110.450 Y121.069 E0.03700
G1 X109.581 Y120.200 E0.05774
G1 X109.581 Y120.988 E0.03700
G1 X109.913 Y121.320 E0.02207
M106 S255
;LAYER_CHANGE
;Z:0.8
;HEIGHT:0.2
G1 Z0.800000 F6600
G1 X110.107 Y113.257
;TYPE:Internal perimeter
;WIDTH:0.6
G1 F3900
G1 X110.107 Y108.457 E0.22234
G1 X119.893 Y108.457 E0.45329
G1 X119.893 Y113.257 E0.22234
G1 X120.893 Y113.257 E0.04632
G1 X120.893 Y121.543 E0.38381
G1 X109.107 Y121.543 E0.54594
G1 X109.107 Y113.257 E0.38381
G1 X110.017 Y113.257 E0.04215
G1 X109.550 Y112.700 F6600
;TYPE:External perimeter
G1 F2100
G1 X109.550 Y107.900 E0.22234
G1 X120.450 Y107.900 E0.50490
G1 X120.450 Y112.700 E0.22234
G1 X121.450 Y112.700 E0.04632
G1 X121.450 Y122.100 E0.43542
G1 X108.550 Y122.100 E0.59755
G1 X108.550 Y112.700 E0.43542
G1 X109.460 Y112.700 E0.04215
G1 X110.150 Y112.700 F6600
G1 X119.544 Y121.320
;TYPE:Solid infill
;WIDTH:0.604559
G1 F2400
G1 X120.419 Y120.445 E0.05778
G1 X120.419 Y119.657 E0.03677
G1 X119.007 Y121.069 E0.09324
G1 X118.219 Y121.069 E0.03677
G1 X120.419 Y118.869 E0.14524
G1 X120.419 Y118.081 E0.03677
G1 X117.431 Y121.069 E0.19724
G1 X116.643 Y121.069 E0.03677
G1 X120.419 Y117.293 E0.24924
G1 X120.419 Y116.506 E0.03677
G1 X115.856 Y121.069 E0.30124
G1 X115.068 Y121.069 E0.03677
G1 X120.419 Y115.718 E0.35325
G1 X120.419 Y114.930 E0.03677
G1 X114.280 Y121.069 E0.40525
G1 X113.492 Y121.069 E0.03677
G1 X120.419 Y114.142 E0.45725
G1 X120.419 Y113.731 E0.01920
G1 X120.043 Y113.731 E0.01757
G1 X112.704 Y121.069 E0.48441
G1 X111.916 Y121.069 E0.03677
G1 X119.419 Y113.566 E0.49524
G1 X119.419 Y112.779 E0.03677
G1 X111.129 Y121.069 E0.54725
G1 X110.341 Y121.069 E0.03677
G1 X119.419 Y111.991 E0.59925
G1 X119.419 Y111.203 E0.03677
G1 X109.581 Y121.042 E0.64942
G1 X109.581 Y120.254 E0.03677
G1 X119.419 Y110.415 E0.64942
G1 X119.419 Y109.627 E0.03677
G1 X109.581 Y119.466 E0.64942
G1 X109.581 Y118.678 E0.03677
G1 X119.328 Y108.931 E0.64340
G1 X118.540 Y108.931 E0.03677
G1 X109.581 Y117.890 E0.59140
G1 X109.581 Y117.103 E0.03677
G1 X117.753 Y108.931 E0.53940
G1 X116.965 Y108.931 E0.03677
G1 X109.581 Y116.315 E0.48740
G1 X109.581 Y115.527 E0.03677
G1 X116.177 Y108.931 E0.43540
G1 X115.389 Y108.931 E0.03677
G1 X109.581 Y114.739 E0.38339
G1 X109.581 Y113.951 E0.03677
G1 X109.801 Y113.731 E0.01456
G1 X110.581 Y113.731 E0.03637
G1 X110.581 Y112.951 E0.03637
G1 X114.601 Y108.931 E0.26539
G1 X113.813 Y108.931 E0.03677
G1 X110.581 Y112.163 E0.21339
G1 X110.581 Y111.376 E0.03677
G1 X113.026 Y108.931 E0.16138
G1 X112.238 Y108.931 E0.03677
G1 X110.581 Y110.588 E0.10938
G1 X110.581 Y109.800 E0.03677
G1 X111.450 Y108.931 E0.05738
G1 X110.662 Y108.931 E0.03677
G1 X110.330 Y109.263 E0.02193
;LAYER_CHANGE
;Z:1
;HEIGHT:0.2
G1 Z1.000000 F6600
G1 X110.107 Y113.257
;TYPE:Internal perimeter
;WIDTH:0.6
G1 F3900
G1 X110.107 Y108.457 E0.22234
G1 X119.893 Y108.457 E0.45329
G1 X119.893 Y113.257 E0.22234
G1 X120.893 Y113.257 E0.04632
G1 X120.893 Y121.543 E0.38381
G1 X109.107 Y121.543 E0.54594
G1 X109.107 Y113.257 E0.38381
G1 X110.017 Y113.257 E0.04215
G1 X109.550 Y112.700 F6600
;TYPE:External perimeter
G1 F2100
G1 X109.550 Y107.900 E0.22234
G1 X120.450 Y107.900 E0.50490
G1 X120.450 Y112.700 E0.22234
G1 X121.450 Y112.700 E0.04632
G1 X121.450 Y122.100 E0.43542
G1 X108.550 Y122.100 E0.59755
G1 X108.550 Y112.700 E0.43542
G1 X109.460 Y112.700 E0.04215
G1 X110.150 Y112.700 F6600
G1 X110.497 Y109.497
;TYPE:Internal infill
G1 F4800
G1 X120.503 Y119.503 E0.65547
G1 X120.503 Y114.258 F6600
G1 F4800
G1 X109.497 Y117.207 E0.52779
G1 X112.619 Y121.153 F6600
G1 F4800
G1 X115.917 Y108.847 E0.59014
;LAYER_CHANGE
;Z:1.2
;HEIGHT:0.2
G1 Z1.200000 F6600
G1 X110.107 Y113.257
;TYPE:Internal perimeter
G1 F1791
G1 X110.107 Y108.457 E0.22234
G1 X119.893 Y108.457 E0.45329
G1 X119.893 Y113.257 E0.22234
G1 X120.893 Y113.257 E0.04632
G1 X120.893 Y121.543 E0.38381
G1 X109.107 Y121.543 E0.54594
G1 X109.107 Y113.257 E0.38381
G1 X110.017 Y113.257 E0.04215
G1 X109.550 Y112.700 F6600
;TYPE:External perimeter
G1 F1791
G1 X109.550 Y107.900 E0.22234
G1 X120.450 Y107.900 E0.50490
G1 X120.450 Y112.700 E0.22234
G1 X121.450 Y112.700 E0.04632
G1 X121.450 Y122.100 E0.43542
G1 X108.550 Y122.100 E0.59755
G1 X108.550 Y112.700 E0.43542
G1 X109.460 Y112.700 E0.04215
G1 X110.150 Y112.700 F6600
G1 X110.497 Y109.297
;TYPE:Internal infill
G1 F1791
G1 X120.503 Y119.303 E0.65547
G1 X120.503 Y114.404 F6600
G1 F1791
G1 X109.497 Y117.353 E0.52779
G1 X112.473 Y121.153 F6600
G1 F1791
