; generated by SuperSlicer 2.3.56 on 2021-10-26 at 13:00:17 UTC

; 

; external perimeters extrusion width = 0.60mm
; perimeters extrusion width = 0.60mm
; infill extrusion width = 0.60mm
; solid infill extrusion width = 0.60mm
; top infill extrusion width = 0.60mm
; first layer extrusion width = 0.60mm


;TYPE:Custom
M83						; extruder relative mode
G28 					                ; home all axes
M109 S205                                           ; hotend temperature
M140 S60 	                                ; heatbed temperature
ROUGE
M190 S60 	                                ; wait for the bed to heat up
M109 S205                                            ; wait for the extruder to heat up
VERT
FULL
G92 E0 					                ; reset extruder
G1 X20 Y5 Z0.3 F5000.0				; move to start-line position
G1 Z0.3 F1000 				                 ; print height
G1 X200 Y5 F1500.0 E15 				 ; draw 1st line
G1 X200 Y5.3 Z0.3 F5000.0				; move to side a little
G1 X5.3  Y5.3 Z0.3 F1500.0 E30 			; draw 2nd line
G1 Z3 F3000 					; move z up little to prevent scratching of surface
M107
G21 ; set units to millimeters
G90 ; use absolute coordinates
M83 ; use relative distances for extrusion
; Filament gcode
;LAYER_CHANGE
;Z:0.4
;HEIGHT:0.4
G1 Z0.400000 F6600
G1 E-2.35000 F3600
G1 Z1.400000 F6600
G1 X96.817 Y86.730
G1 Z0.400000
G1 E2.35000 F3600
;TYPE:Skirt
;WIDTH:0.6
G1 F1200
G1 X98.991 Y84.657 E0.25679
G1 X101.272 Y82.884 E0.24708
G1 X104.208 Y81.105 E0.29354
G1 X106.705 Y79.978 E0.23424
G1 X109.291 Y79.146 E0.23228
G1 X112.439 Y78.561 E0.27379
G1 X115.086 Y78.415 E0.22663
G1 X117.997 Y78.615 E0.24953
G1 X120.863 Y79.187 E0.24992
G1 X123.680 Y80.130 E0.25394
G1 X126.384 Y81.421 E0.25624
G1 X129.040 Y83.103 E0.26887
G1 X131.503 Y85.091 E0.27060
G1 X133.331 Y86.887 E0.21916
G1 X135.487 Y89.441 E0.28572
G1 X137.486 Y92.363 E0.30274
G1 X139.218 Y95.518 E0.30779
G1 X140.390 Y98.148 E0.24614
G1 X141.639 Y101.692 E0.32135
G1 X142.409 Y104.580 E0.25554
G1 X143.125 Y108.437 E0.33542
G1 X143.452 Y111.455 E0.25953
G1 X143.584 Y115.412 E0.33855
G1 X143.411 Y119.052 E0.31157
G1 X142.963 Y122.620 E0.30751
G1 X142.246 Y126.103 E0.30403
G1 X141.274 Y129.453 E0.29831
G1 X140.053 Y132.663 E0.29364
G1 X138.608 Y135.676 E0.28570
G1 X136.954 Y138.478 E0.27823
G1 X135.112 Y141.043 E0.27002
G1 X133.106 Y143.351 E0.26140
G1 X130.928 Y145.413 E0.25650
G1 X128.643 Y147.176 E0.24683
G1 X125.714 Y148.936 E0.29211
G1 X123.203 Y150.058 E0.23521
G1 X120.627 Y150.875 E0.23100
G1 X118.036 Y151.380 E0.22576
G1 X114.996 Y151.585 E0.26049
G1 X112.101 Y151.398 E0.24812
G1 X109.229 Y150.837 E0.25020
G1 X106.414 Y149.908 E0.25341
G1 X103.707 Y148.628 E0.25603
G1 X101.047 Y146.958 E0.26861
G1 X98.580 Y144.981 E0.27030
G1 X96.746 Y143.194 E0.21892
G1 X94.584 Y140.651 E0.28539
G1 X92.578 Y137.739 E0.30240
G1 X90.835 Y134.588 E0.30784
G1 X89.659 Y131.969 E0.24553
G1 X88.400 Y128.431 E0.32107
G1 X87.622 Y125.548 E0.25538
G1 X86.895 Y121.695 E0.33525
G1 X86.559 Y118.679 E0.25946
G1 X86.416 Y114.714 E0.33928
G1 X86.578 Y111.082 E0.31084
G1 X87.017 Y107.511 E0.30760
G1 X87.724 Y104.025 E0.30418
G1 X88.687 Y100.669 E0.29852
G1 X89.899 Y97.453 E0.29389
G1 X91.335 Y94.432 E0.28598
G1 X92.982 Y91.622 E0.27853
G1 X94.823 Y89.040 E0.27109
G1 X96.759 Y86.798 E0.25325
G1 X97.147 Y87.134 F6600
G1 F1200
G1 X97.189 Y87.085 E0.00549
G1 X99.324 Y85.049 E0.25224
G1 X101.559 Y83.310 E0.24218
G1 X104.445 Y81.561 E0.28852
G1 X106.889 Y80.458 E0.22930
G1 X109.413 Y79.646 E0.22668
G1 X112.504 Y79.071 E0.26882
G1 X115.088 Y78.929 E0.22129
G1 X117.929 Y79.124 E0.24346
G1 X120.735 Y79.684 E0.24469
G1 X123.486 Y80.606 E0.24810
G1 X126.140 Y81.874 E0.25149
G1 X128.740 Y83.521 E0.26314
G1 X131.163 Y85.477 E0.26630
G1 X132.954 Y87.236 E0.21460
G1 X135.083 Y89.759 E0.28228
G1 X137.047 Y92.631 E0.29750
G1 X138.761 Y95.753 E0.30453
G1 X139.911 Y98.335 E0.24170
G1 X141.148 Y101.846 E0.31830
G1 X141.907 Y104.691 E0.25171
G1 X142.616 Y108.508 E0.33195
G1 X142.939 Y111.488 E0.25635
G1 X143.070 Y115.412 E0.33567
G1 X142.899 Y119.006 E0.30763
G1 X142.456 Y122.534 E0.30410
G1 X141.747 Y125.977 E0.30058
G1 X140.786 Y129.289 E0.29486
G1 X139.579 Y132.463 E0.29033
G1 X138.155 Y135.433 E0.28164
G1 X136.524 Y138.196 E0.27436
G1 X134.712 Y140.720 E0.26566
G1 X132.736 Y142.994 E0.25762
G1 X130.599 Y145.018 E0.25160
G1 X128.357 Y146.749 E0.24226
G1 X125.474 Y148.481 E0.28753
G1 X123.020 Y149.577 E0.22982
G1 X120.507 Y150.375 E0.22549
G1 X117.969 Y150.870 E0.22105
G1 X114.998 Y151.071 E0.25466
G1 X112.167 Y150.888 E0.24256
G1 X109.359 Y150.340 E0.24460
G1 X106.606 Y149.431 E0.24794
G1 X103.949 Y148.175 E0.25128
G1 X101.345 Y146.539 E0.26288
G1 X98.915 Y144.591 E0.26635
G1 X97.123 Y142.844 E0.21402
G1 X94.987 Y140.332 E0.28193
G1 X93.016 Y137.469 E0.29716
G1 X91.294 Y134.356 E0.30420
G1 X90.137 Y131.780 E0.24147
G1 X88.890 Y128.276 E0.31802
G1 X88.124 Y125.436 E0.25155
G1 X87.404 Y121.623 E0.33178
G1 X87.072 Y118.644 E0.25628
G1 X86.930 Y114.713 E0.33634
G1 X87.091 Y111.126 E0.30697
G1 X87.524 Y107.595 E0.30420
G1 X88.223 Y104.148 E0.30073
G1 X89.175 Y100.831 E0.29507
G1 X90.373 Y97.651 E0.29058
G1 X91.789 Y94.674 E0.28192
G1 X93.413 Y91.902 E0.27467
G1 X95.224 Y89.363 E0.26667
G1 X97.089 Y87.202 E0.24403
G1 X97.477 Y87.538 F6600
G1 F1200
G1 X97.562 Y87.440 E0.01102
G1 X99.654 Y85.443 E0.24735
G1 X101.850 Y83.734 E0.23793
G1 X104.682 Y82.017 E0.28318
G1 X107.074 Y80.938 E0.22435
G1 X109.536 Y80.145 E0.22112
G1 X112.569 Y79.581 E0.26377
G1 X115.086 Y79.443 E0.21560
G1 X117.860 Y79.634 E0.23777
G1 X120.603 Y80.181 E0.23909
G1 X123.293 Y81.083 E0.24263
G1 X125.900 Y82.328 E0.24702
G1 X128.443 Y83.940 E0.25745
G1 X130.826 Y85.866 E0.26196
G1 X132.574 Y87.583 E0.20953
G1 X134.679 Y90.076 E0.27896
G1 X136.608 Y92.899 E0.29239
G1 X138.301 Y95.984 E0.30085
G1 X139.432 Y98.523 E0.23765
G1 X140.658 Y102.000 E0.31525
G1 X141.405 Y104.801 E0.24789
G1 X142.107 Y108.582 E0.32885
G1 X142.426 Y111.522 E0.25281
G1 X142.556 Y115.412 E0.33278
G1 X142.387 Y118.964 E0.30406
G1 X141.949 Y122.449 E0.30037
G1 X141.247 Y125.857 E0.29744
G1 X140.298 Y129.130 E0.29141
G1 X139.107 Y132.259 E0.28630
G1 X137.700 Y135.194 E0.27828
G1 X136.091 Y137.918 E0.27049
G1 X134.311 Y140.398 E0.26104
G1 X132.365 Y142.638 E0.25376
G1 X130.267 Y144.625 E0.24705
G1 X128.067 Y146.324 E0.23766
G1 X125.238 Y148.025 E0.28225
G1 X122.837 Y149.096 E0.22479
G1 X120.381 Y149.876 E0.22034
G1 X117.906 Y150.360 E0.21563
G1 X114.999 Y150.557 E0.24917
G1 X112.233 Y150.378 E0.23700
G1 X109.490 Y149.843 E0.23899
G1 X106.797 Y148.953 E0.24248
G1 X104.188 Y147.719 E0.24680
G1 X101.641 Y146.119 E0.25719
G1 X99.253 Y144.204 E0.26166
G1 X97.501 Y142.495 E0.20929
G1 X95.393 Y140.016 E0.27829
G1 X93.452 Y137.196 E0.29267
G1 X91.753 Y134.124 E0.30020
G1 X90.615 Y131.591 E0.23742
G1 X89.380 Y128.121 E0.31497
G1 X88.626 Y125.324 E0.24772
G1 X87.912 Y121.546 E0.32867
G1 X87.585 Y118.609 E0.25274
G1 X87.444 Y114.716 E0.33306
G1 X87.603 Y111.167 E0.30379
G1 X88.031 Y107.679 E0.30048
G1 X88.723 Y104.268 E0.29760
G1 X89.664 Y100.989 E0.29162
G1 X90.846 Y97.853 E0.28656
G1 X92.245 Y94.911 E0.27856
G1 X93.847 Y92.179 E0.27080
G1 X95.625 Y89.684 E0.26200
G1 X97.419 Y87.606 E0.23472
;WIPE_START
G1 F5280
G1 X97.562 Y87.440 E-0.14181
G1 X99.654 Y85.443 E-1.87379
G1 X99.919 Y85.237 E-0.21690
;WIPE_END
G1 E-0.11750 F3600
G1 Z1.400000 F6600
G1 X97.419 Y87.606
G1 X97.419 Y87.606
G1 X110.035 Y106.772
G1 Z0.400000
G1 E2.35000 F3600
;TYPE:Internal perimeter
G1 F1200
G1 X110.250 Y106.772 E0.01835
G1 X110.357 Y106.586 E0.01835
G1 X112.530 Y110.350 E0.37164
G1 X117.471 Y110.350 E0.42240
G1 X119.644 Y106.586 E0.37164
G1 X119.751 Y106.772 E0.01835
G1 X119.966 Y106.772 E0.01835
G1 X117.792 Y110.536 E0.37164
G1 X120.262 Y114.814 E0.42240
G1 X124.609 Y114.814 E0.37164
G1 X124.502 Y115.000 E0.01835
G1 X124.609 Y115.186 E0.01835
G1 X120.262 Y115.186 E0.37164
G1 X117.792 Y119.464 E0.42240
G1 X119.966 Y123.228 E0.37164
G1 X119.751 Y123.228 E0.01835
G1 X119.644 Y123.414 E0.01835
G1 X117.471 Y119.650 E0.37164
G1 X112.530 Y119.650 E0.42240
G1 X110.357 Y123.414 E0.37164
G1 X110.250 Y123.228 E0.01835
G1 X110.035 Y123.228 E0.01835
G1 X112.209 Y119.464 E0.37164
G1 X109.738 Y115.186 E0.42240
G1 X105.392 Y115.186 E0.37164
G1 X105.499 Y115.000 E0.01835
G1 X105.392 Y114.814 E0.01835
G1 X109.738 Y114.814 E0.37164
G1 X112.209 Y110.536 E0.42240
G1 X110.080 Y106.850 E0.36394
;WIPE_START
G1 F5280
G1 X110.250 Y106.772 E-0.12090
G1 X110.357 Y106.586 E-0.13900
G1 X111.880 Y109.223 E-1.97261
;WIPE_END
G1 E-0.11750 F3600
G1 Z0.600000 F6600
G1 X110.080 Y106.850
G1 X110.080 Y106.850
G1 X118.899 Y101.758
G1 Z0.400000
G1 E2.35000 F3600
G1 F1200
G1 X120.773 Y105.002 E0.32033
G1 X124.713 Y105.002 E0.33690
G1 X126.683 Y101.590 E0.33690
G1 X124.713 Y98.178 E0.33690
G1 X120.773 Y98.178 E0.33690
G1 X118.802 Y101.590 E0.33690
G1 X118.854 Y101.680 E0.00887
G1 X119.396 Y101.590 F6600
;TYPE:External perimeter
G1 F1200
G1 X121.069 Y104.488 E0.28613
G1 X124.416 Y104.488 E0.28613
G1 X126.089 Y101.590 E0.28613
G1 X124.416 Y98.692 E0.28613
G1 X121.069 Y98.692 E0.28613
G1 X119.441 Y101.512 E0.27844
G1 X118.937 Y101.976 F6600
;WIPE_START
G1 F5280
G1 X121.069 Y104.488 E-2.19729
G1 X121.124 Y104.488 E-0.03521
;WIPE_END
G1 E-0.11750 F3600
G1 Z0.600000 F6600
G1 X119.441 Y101.512
G1 X119.441 Y101.512
G1 X117.120 Y101.793
G1 Z0.400000
G1 E2.35000 F3600
;TYPE:Internal perimeter
G1 F1200
G1 X118.941 Y98.640 E0.31138
G1 X116.971 Y95.227 E0.33690
G1 X113.030 Y95.227 E0.33690
G1 X111.060 Y98.640 E0.33690
G1 X112.881 Y101.793 E0.31138
G1 X112.530 Y101.793 E0.02999
G1 X109.953 Y106.258 E0.44075
G1 X104.798 Y106.258 E0.44075
G1 X104.526 Y106.729 E0.04658
G1 X102.511 Y103.240 E0.34455
G1 X98.571 Y103.240 E0.33690
G1 X96.601 Y106.652 E0.33690
G1 X98.571 Y110.064 E0.33690
G1 X102.601 Y110.064 E0.34455
G1 X102.328 Y110.536 E0.04658
G1 X104.906 Y115.000 E0.44075
G1 X102.328 Y119.464 E0.44075
G1 X102.601 Y119.936 E0.04658
G1 X98.571 Y119.936 E0.34455
G1 X96.601 Y123.348 E0.33690
G1 X98.571 Y126.760 E0.33690
G1 X102.511 Y126.760 E0.33690
G1 X104.526 Y123.271 E0.34455
G1 X104.798 Y123.742 E0.04658
G1 X109.953 Y123.742 E0.44075
G1 X112.530 Y128.206 E0.44075
G1 X112.881 Y128.206 E0.02999
G1 X111.060 Y131.360 E0.31138
G1 X113.030 Y134.772 E0.33690
G1 X116.971 Y134.772 E0.33690
G1 X118.941 Y131.360 E0.33690
G1 X117.120 Y128.206 E0.31138
G1 X117.471 Y128.206 E0.02999
G1 X120.048 Y123.742 E0.44075
G1 X125.203 Y123.742 E0.44075
G1 X125.475 Y123.271 E0.04658
G1 X127.490 Y126.760 E0.34455
G1 X131.430 Y126.760 E0.33690
G1 X133.400 Y123.348 E0.33690
G1 X131.430 Y119.936 E0.33690
G1 X127.400 Y119.936 E0.34455
G1 X127.673 Y119.464 E0.04658
G1 X125.095 Y115.000 E0.44075
G1 X127.673 Y110.536 E0.44075
G1 X127.400 Y110.064 E0.04658
G1 X131.430 Y110.064 E0.34455
G1 X133.400 Y106.652 E0.33690
G1 X131.430 Y103.240 E0.33690
G1 X127.490 Y103.240 E0.33690
G1 X125.475 Y106.729 E0.34455
G1 X125.203 Y106.258 E0.04658
G1 X120.048 Y106.258 E0.44075
G1 X117.471 Y101.793 E0.44075
G1 X117.210 Y101.793 E0.02230
;WIPE_START
G1 F5280
G1 X118.868 Y98.772 E-2.23250
;WIPE_END
G1 E-0.11750 F3600
G1 Z0.600000 F6600
G1 X117.210 Y101.793
G1 X117.210 Y101.793
G1 X117.174 Y111.236
G1 Z0.400000
G1 E2.35000 F3600
;TYPE:External perimeter
G1 F1200
G1 X112.827 Y111.236 E0.37164
G1 X110.654 Y115.000 E0.37164
G1 X112.827 Y118.764 E0.37164
G1 X117.174 Y118.764 E0.37164
G1 X119.347 Y115.000 E0.37164
G1 X117.219 Y111.314 E0.36394
G1 X117.070 Y110.645 F6600
;WIPE_START
G1 F5280
G1 X113.773 Y111.253 E-2.23250
;WIPE_END
G1 E-0.11750 F3600
G1 Z0.600000 F6600
G1 X117.219 Y111.314
G1 X117.219 Y111.314
G1 X117.174 Y120.164
G1 Z0.400000
G1 E2.35000 F3600
G1 F1200
G1 X112.827 Y120.164 E0.37164
G1 X110.654 Y123.928 E0.37164
G1 X112.827 Y127.692 E0.37164
G1 X117.174 Y127.692 E0.37164
G1 X119.347 Y123.928 E0.37164
G1 X117.219 Y120.242 E0.36394
G1 X117.070 Y119.573 F6600
;WIPE_START
G1 F5280
G1 X113.773 Y120.181 E-2.23250
;WIPE_END
G1 E-0.11750 F3600
G1 Z0.600000 F6600
G1 X117.219 Y120.242
G1 X117.219 Y120.242
G1 X116.674 Y128.462
G1 Z0.400000
G1 E2.35000 F3600
G1 F1200
G1 X113.327 Y128.462 E0.28613
G1 X111.654 Y131.360 E0.28613
G1 X113.327 Y134.258 E0.28613
G1 X116.674 Y134.258 E0.28613
G1 X118.347 Y131.360 E0.28613
G1 X116.719 Y128.540 E0.27844
G1 X116.570 Y127.871 F6600
;WIPE_START
G1 F5280
G1 X113.327 Y128.462 E-2.19729
G1 X113.300 Y128.509 E-0.03521
;WIPE_END
G1 E-0.11750 F3600
G1 Z0.600000 F6600
G1 X116.719 Y128.540
G1 X116.719 Y128.540
G1 X120.559 Y123.228
G1 Z0.400000
G1 E2.35000 F3600
G1 F1200
G1 X124.906 Y123.228 E0.37164
G1 X127.079 Y119.464 E0.37164
G1 X124.906 Y115.700 E0.37164
G1 X120.559 Y115.700 E0.37164
G1 X118.386 Y119.464 E0.37164
G1 X120.514 Y123.150 E0.36394
G1 X120.664 Y123.819 F6600
;WIPE_START
G1 F5280
G1 X123.960 Y123.211 E-2.23250
;WIPE_END
G1 E-0.11750 F3600
G1 Z0.600000 F6600
G1 X120.514 Y123.150
G1 X120.514 Y123.150
G1 X126.113 Y123.348
G1 Z0.400000
G1 E2.35000 F3600
G1 F1200
G1 X127.787 Y126.246 E0.28613
G1 X131.133 Y126.246 E0.28613
G1 X132.806 Y123.348 E0.28614
G1 X131.133 Y120.450 E0.28614
G1 X127.787 Y120.450 E0.28613
G1 X126.158 Y123.270 E0.27844
G1 X125.654 Y123.734 F6600
;WIPE_START
G1 F5280
G1 X127.787 Y126.246 E-2.19729
G1 X127.841 Y126.246 E-0.03521
;WIPE_END
G1 E-0.11750 F3600
G1 Z0.600000 F6600
G1 X126.158 Y123.270
G1 X126.158 Y123.270
G1 X124.906 Y114.300
G1 Z0.400000
G1 E2.35000 F3600
G1 F1200
G1 X127.079 Y110.536 E0.37164
G1 X124.906 Y106.772 E0.37164
G1 X120.559 Y106.772 E0.37164
G1 X118.386 Y110.536 E0.37164
G1 X120.559 Y114.300 E0.37164
G1 X124.816 Y114.300 E0.36394
G1 X125.470 Y114.505 F6600
;WIPE_START
G1 F5280
G1 X126.592 Y111.346 E-2.23250
;WIPE_END
G1 E-0.11750 F3600
G1 Z0.600000 F6600
G1 X124.816 Y114.300
G1 X124.816 Y114.300
G1 X127.787 Y109.550
G1 Z0.400000
G1 E2.35000 F3600
G1 F1200
G1 X131.133 Y109.550 E0.28613
G1 X132.806 Y106.652 E0.28614
G1 X131.133 Y103.754 E0.28614
G1 X127.787 Y103.754 E0.28613
G1 X126.113 Y106.652 E0.28613
G1 X127.742 Y109.472 E0.27844
G1 X127.891 Y110.141 F6600
;WIPE_START
G1 F5280
G1 X131.133 Y109.550 E-2.19729
G1 X131.160 Y109.503 E-0.03521
;WIPE_END
G1 E-0.11750 F3600
G1 Z0.600000 F6600
G1 X127.742 Y109.472
G1 X127.742 Y109.472
G1 X119.347 Y106.072
G1 Z0.400000
G1 E2.35000 F3600
G1 F1200
G1 X117.174 Y102.308 E0.37164
G1 X112.827 Y102.308 E0.37164
G1 X110.654 Y106.072 E0.37164
G1 X112.827 Y109.836 E0.37164
G1 X117.174 Y109.836 E0.37164
G1 X119.302 Y106.150 E0.36394
G1 X119.807 Y105.686 F6600
;WIPE_START
G1 F5280
G1 X117.632 Y103.135 E-2.23250
;WIPE_END
G1 E-0.11750 F3600
G1 Z0.600000 F6600
G1 X119.302 Y106.150
G1 X119.302 Y106.150
G1 X116.674 Y101.538
G1 Z0.400000
G1 E2.35000 F3600
G1 F1200
G1 X118.347 Y98.640 E0.28613
G1 X116.674 Y95.742 E0.28613
G1 X113.327 Y95.742 E0.28613
G1 X111.654 Y98.640 E0.28613
G1 X113.327 Y101.538 E0.28613
G1 X116.584 Y101.538 E0.27844
G1 X117.238 Y101.743 F6600
;WIPE_START
G1 F5280
G1 X118.347 Y98.640 E-2.19729
G1 X118.320 Y98.593 E-0.03521
;WIPE_END
G1 E-0.11750 F3600
G1 Z0.600000 F6600
G1 X116.584 Y101.538
G1 X116.584 Y101.538
G1 X109.442 Y106.772
G1 Z0.400000
G1 E2.35000 F3600
G1 F1200
G1 X105.095 Y106.772 E0.37164
G1 X102.922 Y110.536 E0.37164
G1 X105.095 Y114.300 E0.37164
G1 X109.442 Y114.300 E0.37164
G1 X111.615 Y110.536 E0.37164
G1 X109.487 Y106.850 E0.36394
G1 X109.337 Y106.181 F6600
;WIPE_START
G1 F5280
G1 X106.041 Y106.788 E-2.23250
;WIPE_END
G1 E-0.11750 F3600
G1 Z0.600000 F6600
G1 X109.487 Y106.850
G1 X109.487 Y106.850
G1 X103.888 Y106.652
G1 Z0.400000
G1 E2.35000 F3600
G1 F1200
G1 X102.214 Y103.754 E0.28613
G1 X98.868 Y103.754 E0.28613
G1 X97.195 Y106.652 E0.28613
G1 X98.868 Y109.550 E0.28613
G1 X102.214 Y109.550 E0.28613
G1 X103.843 Y106.730 E0.27844
G1 X104.347 Y106.266 F6600
;WIPE_START
G1 F5280
G1 X102.214 Y103.754 E-2.19729
G1 X102.160 Y103.754 E-0.03521
;WIPE_END
G1 E-0.11750 F3600
G1 Z0.600000 F6600
G1 X103.843 Y106.730
G1 X103.843 Y106.730
G1 X105.095 Y115.700
G1 Z0.400000
G1 E2.35000 F3600
G1 F1200
G1 X102.922 Y119.464 E0.37164
G1 X105.095 Y123.228 E0.37164
G1 X109.442 Y123.228 E0.37164
G1 X111.615 Y119.464 E0.37164
G1 X109.442 Y115.700 E0.37164
G1 X105.185 Y115.700 E0.36394
