; generated by SuperSlicer 2.3.56 on 2021-10-30 at 19:30:13 UTC

; 

; external perimeters extrusion width = 0.60mm
; perimeters extrusion width = 0.60mm
; infill extrusion width = 0.60mm
; solid infill extrusion width = 0.60mm
; top infill extrusion width = 0.60mm
; support material extrusion width = 0.60mm
; first layer extrusion width = 0.60mm


;TYPE:Custom
M83						; extruder relative mode
G28 					                ; home all axes
M109 S205                                           ; hotend temperature
M140 S60 	                                ; heatbed temperature
ROUGE
M190 S60 	                                ; wait for the bed to heat up
M109 S205                                            ; wait for the extruder to heat up
VERT
FULL
G92 E0 					                ; reset extruder
G1 X20 Y5 Z0.3 F5000.0				; move to start-line position
G1 Z0.3 F1000 				                 ; print height
G1 X200 Y5 F1500.0 E15 				 ; draw 1st line
G1 X200 Y5.3 Z0.3 F5000.0				; move to side a little
G1 X5.3  Y5.3 Z0.3 F1500.0 E30 			; draw 2nd line
G1 Z3 F3000 					; move z up little to prevent scratching of surface
M107
G21 ; set units to millimeters
G90 ; use absolute coordinates
M83 ; use relative distances for extrusion
; Filament gcode
;LAYER_CHANGE
;Z:0.2
;HEIGHT:0.2
G1 Z0.200000 F6600
G1 E-2.35000 F3600
G1 Z0.800000 F6600
G1 X97.697 Y73.100
G1 Z0.200000
G1 E2.35000 F3600
;TYPE:Skirt
;WIDTH:0.6
G1 F1200
G1 X98.454 Y72.294 E0.05120
G1 X99.429 Y71.774 E0.05120
G1 X100.520 Y71.595 E0.05120
G1 X129.745 Y71.856 E1.35381
G1 X130.692 Y72.068 E0.04495
G1 X131.540 Y72.540 E0.04495
G1 X132.217 Y73.229 E0.04475
G1 X132.675 Y74.085 E0.04495
G1 X140.042 Y107.190 E1.57100
G1 X140.576 Y111.130 E0.18416
G1 X140.732 Y115.854 E0.21893
G1 X140.511 Y119.385 E0.16390
G1 X139.843 Y123.661 E0.20047
G1 X132.769 Y152.649 E1.38214
G1 X132.470 Y153.413 E0.03806
G1 X131.995 Y154.084 E0.03806
G1 X131.372 Y154.621 E0.03806
G1 X130.635 Y154.993 E0.03827
G1 X129.475 Y155.195 E0.05453
G1 X100.282 Y154.936 E1.35233
G1 X99.329 Y154.730 E0.04516
G1 X98.474 Y154.261 E0.04516
G1 X97.788 Y153.568 E0.04516
G1 X97.325 Y152.705 E0.04537
G1 X90.177 Y123.759 E1.38111
G1 X89.684 Y120.973 E0.13105
G1 X89.381 Y118.188 E0.12977
G1 X89.281 Y116.276 E0.08866
G1 X89.285 Y113.368 E0.13470
G1 X89.548 Y109.918 E0.16029
G1 X90.106 Y106.424 E0.16388
G1 X97.240 Y74.106 E1.53305
G1 X97.660 Y73.182 E0.04703
G1 X98.148 Y73.428 F6600
G1 F1200
G1 X98.782 Y72.744 E0.04316
G1 X99.602 Y72.303 E0.04316
G1 X100.522 Y72.152 E0.04316
G1 X129.675 Y72.409 E1.35045
G1 X130.473 Y72.581 E0.03783
G1 X131.186 Y72.971 E0.03764
G1 X131.762 Y73.550 E0.03783
G1 X132.149 Y74.269 E0.03783
G1 X139.495 Y107.296 E1.56722
G1 X140.020 Y111.174 E0.18127
G1 X140.176 Y115.827 E0.21565
G1 X139.957 Y119.322 E0.16222
G1 X139.299 Y123.544 E0.19794
G1 X132.234 Y152.492 E1.38028
G1 X131.987 Y153.135 E0.03191
G1 X131.591 Y153.699 E0.03191
G1 X131.068 Y154.154 E0.03210
G1 X130.454 Y154.466 E0.03191
G1 X129.476 Y154.638 E0.04601
G1 X100.346 Y154.382 E1.34939
G1 X99.542 Y154.214 E0.03802
G1 X98.820 Y153.824 E0.03802
G1 X98.240 Y153.243 E0.03802
G1 X97.851 Y152.520 E0.03802
G1 X90.723 Y123.648 E1.37755
G1 X90.235 Y120.893 E0.12960
G1 X89.936 Y118.140 E0.12830
G1 X89.838 Y116.264 E0.08701
G1 X89.841 Y113.407 E0.13232
G1 X90.101 Y109.984 E0.15901
G1 X90.653 Y106.532 E0.16195
G1 X97.770 Y74.279 E1.52993
G1 X98.112 Y73.510 E0.03899
G1 X98.605 Y73.747 F6600
G1 F1200
G1 X99.114 Y73.192 E0.03491
G1 X99.776 Y72.833 E0.03491
G1 X100.520 Y72.709 E0.03491
G1 X129.612 Y72.964 E1.34764
G1 X130.260 Y73.096 E0.03064
G1 X130.843 Y73.409 E0.03064
G1 X131.311 Y73.877 E0.03064
G1 X131.624 Y74.455 E0.03047
G1 X138.821 Y106.747 E1.53249
G1 X139.252 Y109.314 E0.12058
G1 X139.463 Y111.200 E0.08789
G1 X139.619 Y115.806 E0.21352
G1 X139.404 Y119.259 E0.16023
G1 X138.754 Y123.427 E0.19541
G1 X131.697 Y152.344 E1.37877
G1 X131.499 Y152.865 E0.02585
G1 X131.183 Y153.321 E0.02567
G1 X130.763 Y153.688 E0.02585
G1 X130.266 Y153.942 E0.02585
G1 X129.477 Y154.080 E0.03712
G1 X100.403 Y153.827 E1.34679
G1 X99.751 Y153.697 E0.03081
G1 X99.163 Y153.385 E0.03081
G1 X98.694 Y152.919 E0.03064
G1 X98.376 Y152.335 E0.03081
G1 X91.269 Y123.538 E1.37395
G1 X90.787 Y120.814 E0.12813
G1 X90.491 Y118.092 E0.12683
G1 X90.397 Y113.439 E0.21558
G1 X90.655 Y110.047 E0.15758
G1 X91.199 Y106.644 E0.15962
G1 X98.305 Y74.439 E1.52768
G1 X98.569 Y73.830 E0.03074
;WIPE_START
G1 F5280
G1 X99.114 Y73.192 E-0.54354
G1 X99.776 Y72.833 E-0.48810
G1 X100.520 Y72.709 E-0.48810
G1 X101.620 Y72.719 E-0.71277
;WIPE_END
G1 E-0.11750 F3600
G1 Z0.800000 F6600
G1 X98.569 Y73.830
G1 X98.569 Y73.830
G1 X129.484 Y151.802
G1 Z0.200000
G1 E2.35000 F3600
;TYPE:Support material
G1 F1200
G1 X129.484 Y138.518 E0.61533
G1 X129.442 Y138.564 E0.00290
G1 X129.070 Y138.954 E0.02495
G1 X128.994 Y139.033 E0.00509
G1 X128.966 Y139.062 E0.00187
G1 X128.833 Y139.192 E0.00863
G1 X128.496 Y139.527 E0.02198
G1 X128.370 Y139.647 E0.00807
G1 X128.370 Y151.551 E0.55141
G1 X127.256 Y151.551 E0.05161
G1 X127.256 Y140.644 E0.50526
G1 X127.166 Y140.719 E0.00543
G1 X127.134 Y140.747 E0.00196
G1 X127.094 Y140.779 E0.00237
G1 X126.674 Y141.117 E0.02499
G1 X126.632 Y141.150 E0.00247
G1 X126.209 Y141.471 E0.02459
G1 X126.170 Y141.501 E0.00229
G1 X126.142 Y141.522 E0.00162
G1 X126.142 Y151.551 E0.46458
G1 X125.027 Y151.551 E0.05161
G1 X125.027 Y142.289 E0.42904
G1 X124.753 Y142.464 E0.01507
G1 X124.682 Y142.509 E0.00391
G1 X124.578 Y142.571 E0.00560
G1 X124.196 Y142.800 E0.02063
G1 X123.913 Y142.958 E0.01502
G1 X123.913 Y151.551 E0.39804
G1 X122.799 Y151.551 E0.05161
G1 X122.799 Y143.537 E0.37124
G1 X122.626 Y143.621 E0.00892
G1 X122.271 Y143.781 E0.01803
G1 X122.107 Y143.854 E0.00833
G1 X121.685 Y144.030 E0.02116
G1 X121.685 Y151.551 E0.34841
G1 X120.571 Y151.551 E0.05161
G1 X120.571 Y144.440 E0.32941
G1 X120.548 Y144.448 E0.00112
G1 X120.109 Y144.585 E0.02129
G1 X119.962 Y144.630 E0.00713
G1 X119.514 Y144.756 E0.02154
G1 X119.457 Y144.770 E0.00275
G1 X119.457 Y151.551 E0.31411
G1 X118.342 Y151.551 E0.05161
G1 X118.342 Y145.025 E0.30232
G1 X117.886 Y145.109 E0.02151
G1 X117.356 Y145.189 E0.02483
G1 X117.228 Y145.205 E0.00596
G1 X117.228 Y151.551 E0.29397
G1 X116.114 Y151.551 E0.05161
G1 X116.114 Y145.313 E0.28898
G1 X115.760 Y145.333 E0.01644
G1 X115.728 Y145.335 E0.00148
G1 X115.376 Y145.346 E0.01629
G1 X115.350 Y145.346 E0.00123
G1 X115.000 Y145.350 E0.01620
G1 X115.000 Y151.551 E0.28725
G1 X113.886 Y151.551 E0.05161
G1 X113.886 Y145.313 E0.28896
G1 X113.811 Y145.309 E0.00345
G1 X113.777 Y145.307 E0.00160
G1 X113.216 Y145.258 E0.02606
G1 X113.182 Y145.254 E0.00161
G1 X112.772 Y145.205 E0.01914
G1 X112.772 Y151.551 E0.29399
G1 X111.657 Y151.551 E0.05161
G1 X111.657 Y145.022 E0.30245
G1 X111.373 Y144.967 E0.01340
G1 X111.308 Y144.952 E0.00310
G1 X110.819 Y144.841 E0.02323
G1 X110.543 Y144.769 E0.01321
G1 X110.543 Y151.551 E0.31418
G1 X109.429 Y151.551 E0.05161
G1 X109.429 Y144.438 E0.32950
G1 X109.074 Y144.318 E0.01736
G1 X108.924 Y144.263 E0.00739
G1 X108.484 Y144.098 E0.02177
G1 X108.315 Y144.029 E0.00848
G1 X108.315 Y151.551 E0.34846
G1 X107.201 Y151.551 E0.05161
G1 X107.201 Y143.537 E0.37121
G1 X106.790 Y143.336 E0.02119
G1 X106.694 Y143.286 E0.00501
G1 X106.220 Y143.035 E0.02487
G1 X106.112 Y142.974 E0.00570
G1 X106.087 Y142.960 E0.00137
G1 X106.087 Y151.551 E0.39798
G1 X104.973 Y151.551 E0.05161
G1 X104.973 Y142.289 E0.42903
G1 X104.512 Y141.986 E0.02554
G1 X104.160 Y141.738 E0.01997
G1 X104.023 Y141.642 E0.00771
G1 X103.967 Y141.602 E0.00321
G1 X103.923 Y141.569 E0.00251
G1 X103.858 Y141.520 E0.00377
G1 X103.858 Y151.551 E0.46464
G1 X102.744 Y151.551 E0.05161
G1 X102.744 Y140.643 E0.50529
G1 X102.376 Y140.330 E0.02235
G1 X102.284 Y140.248 E0.00573
G1 X101.899 Y139.901 E0.02403
G1 X101.630 Y139.645 E0.01719
G1 X101.630 Y151.551 E0.55153
G1 X100.516 Y151.551 E0.05161
G1 X100.516 Y138.147 E0.62090
;WIPE_START
G1 F5280
G1 X100.516 Y141.594 E-2.23250
;WIPE_END
G1 E-0.11750 F3600
G1 Z0.400000 F6600
G1 X100.516 Y138.147
G1 X100.516 Y138.147
G1 X129.484 Y91.699
G1 Z0.200000
G1 E2.35000 F3600
G1 F1200
G1 X129.484 Y75.239 E0.76245
G1 X128.370 Y75.239 E0.05161
G1 X128.370 Y90.195 E0.69281
G1 X128.328 Y90.154 E0.00274
G1 X128.265 Y90.095 E0.00399
G1 X127.889 Y89.749 E0.02365
G1 X127.798 Y89.667 E0.00567
G1 X127.277 Y89.216 E0.03194
G1 X127.256 Y89.198 E0.00127
G1 X127.256 Y75.239 E0.64663
G1 X126.142 Y75.239 E0.05161
G1 X126.142 Y88.322 E0.60604
G1 X126.006 Y88.225 E0.00771
G1 X125.657 Y87.974 E0.01994
G1 X125.246 Y87.697 E0.02294
G1 X125.100 Y87.600 E0.00812
G1 X125.027 Y87.553 E0.00400
G1 X125.027 Y75.239 E0.57044
G1 X123.913 Y75.239 E0.05161
G1 X123.913 Y86.883 E0.53940
G1 X123.596 Y86.711 E0.01673
G1 X123.410 Y86.610 E0.00979
G1 X122.958 Y86.383 E0.02343
G1 X122.849 Y86.328 E0.00568
G1 X122.799 Y86.305 E0.00254
G1 X122.799 Y75.239 E0.51261
G1 X121.685 Y75.239 E0.05161
G1 X121.685 Y85.813 E0.48983
G1 X121.629 Y85.791 E0.00281
G1 X121.141 Y85.603 E0.02420
G1 X120.986 Y85.548 E0.00763
G1 X120.571 Y85.403 E0.02036
G1 X120.571 Y75.239 E0.47085
G1 X119.457 Y75.239 E0.05161
G1 X119.457 Y85.073 E0.45556
G1 X119.389 Y85.055 E0.00323
G1 X118.861 Y84.929 E0.02518
G1 X118.789 Y84.911 E0.00344
G1 X118.342 Y84.819 E0.02110
G1 X118.342 Y75.239 E0.44380
G1 X117.228 Y75.239 E0.05161
G1 X117.228 Y84.639 E0.43544
G1 X117.009 Y84.610 E0.01024
G1 X116.978 Y84.606 E0.00147
G1 X116.415 Y84.551 E0.02620
G1 X116.379 Y84.548 E0.00166
G1 X116.114 Y84.531 E0.01230
G1 X116.114 Y75.239 E0.43045
G1 X115.000 Y75.239 E0.05161
G1 X115.000 Y84.495 E0.42876
G1 X114.684 Y84.496 E0.01462
G1 X114.648 Y84.497 E0.00169
G1 X114.139 Y84.515 E0.02358
G1 X114.106 Y84.516 E0.00152
G1 X113.886 Y84.531 E0.01024
G1 X113.886 Y75.239 E0.43043
G1 X112.772 Y75.239 E0.05161
G1 X112.772 Y84.639 E0.43543
G1 X112.514 Y84.672 E0.01201
G1 X112.487 Y84.676 E0.00131
G1 X111.982 Y84.757 E0.02370
G1 X111.657 Y84.819 E0.01528
G1 X111.657 Y75.239 E0.44380
G1 X110.543 Y75.239 E0.05161
G1 X110.543 Y85.074 E0.45558
G1 X110.385 Y85.115 E0.00757
G1 X110.294 Y85.140 E0.00439
G1 X109.857 Y85.267 E0.02109
G1 X109.713 Y85.313 E0.00700
G1 X109.429 Y85.404 E0.01380
G1 X109.429 Y75.239 E0.47089
G1 X108.315 Y75.239 E0.05161
G1 X108.315 Y85.813 E0.48983
G1 X108.246 Y85.841 E0.00344
G1 X108.131 Y85.890 E0.00578
G1 X107.743 Y86.054 E0.01953
G1 X107.348 Y86.236 E0.02012
G1 X107.201 Y86.304 E0.00754
G1 X107.201 Y75.239 E0.51257
G1 X106.087 Y75.239 E0.05161
G1 X106.087 Y86.884 E0.53941
G1 X105.690 Y87.110 E0.02115
G1 X105.543 Y87.200 E0.00800
G1 X105.167 Y87.428 E0.02037
G1 X104.973 Y87.554 E0.01073
G1 X104.973 Y75.239 E0.57047
G1 X103.858 Y75.239 E0.05161
G1 X103.858 Y88.323 E0.60610
G1 X103.830 Y88.344 E0.00163
G1 X103.762 Y88.394 E0.00390
G1 X103.712 Y88.429 E0.00282
G1 X103.668 Y88.463 E0.00261
G1 X103.245 Y88.789 E0.02471
G1 X103.200 Y88.825 E0.00269
G1 X103.139 Y88.875 E0.00364
G1 X102.744 Y89.198 E0.02362
G1 X102.744 Y75.239 E0.64661
G1 X101.630 Y75.239 E0.05161
G1 X101.630 Y90.198 E0.69293
G1 X101.501 Y90.322 E0.00828
G1 X101.365 Y90.451 E0.00870
G1 X101.334 Y90.480 E0.00196
G1 X100.895 Y90.924 E0.02893
G1 X100.816 Y91.006 E0.00527
G1 X100.516 Y91.326 E0.02032
G1 X100.516 Y74.988 E0.75679
;WIPE_START
G1 F5280
G1 X100.516 Y78.435 E-2.23250
;WIPE_END
G1 E-0.11750 F3600
G1 Z0.400000 F6600
G1 X100.516 Y74.988
G1 X100.516 Y74.988
G1 X107.307 Y87.856
G1 Z0.200000
G1 E2.35000 F3600
;TYPE:Internal perimeter
G1 F1200
G1 X107.420 Y87.798 E0.00589
G1 X107.824 Y87.597 E0.02090
G1 X107.950 Y87.539 E0.00640
G1 X108.320 Y87.369 E0.01887
G1 X108.693 Y87.211 E0.01879
G1 X108.795 Y87.167 E0.00511
G1 X108.895 Y87.128 E0.00497
G1 X109.268 Y86.982 E0.01858
G1 X109.401 Y86.935 E0.00652
G1 X109.776 Y86.801 E0.01843
G1 X110.152 Y86.680 E0.01832
G1 X110.271 Y86.641 E0.00580
G1 X110.689 Y86.521 E0.02015
G1 X110.763 Y86.500 E0.00357
G1 X111.173 Y86.394 E0.01959
G1 X111.599 Y86.299 E0.02024
G1 X111.737 Y86.266 E0.00658
G1 X112.226 Y86.172 E0.02306
G1 X112.718 Y86.093 E0.02307
G1 X113.212 Y86.030 E0.02307
G1 X113.706 Y85.981 E0.02301
G1 X114.191 Y85.949 E0.02251
G1 X114.686 Y85.932 E0.02293
G1 X115.182 Y85.930 E0.02296
G1 X115.730 Y85.946 E0.02543
G1 X116.278 Y85.980 E0.02542
G1 X116.831 Y86.035 E0.02575
G1 X117.378 Y86.107 E0.02554
G1 X117.923 Y86.199 E0.02563
G1 X118.465 Y86.310 E0.02563
G1 X118.520 Y86.323 E0.00260
G1 X119.037 Y86.447 E0.02460
G1 X119.539 Y86.585 E0.02413
G1 X119.679 Y86.628 E0.00679
G1 X120.096 Y86.758 E0.02024
G1 X120.512 Y86.903 E0.02039
G1 X120.649 Y86.951 E0.00674
G1 X121.107 Y87.128 E0.02273
G1 X121.184 Y87.159 E0.00385
G1 X121.684 Y87.371 E0.02515
G1 X121.719 Y87.386 E0.00178
G1 X122.223 Y87.621 E0.02577
G1 X122.315 Y87.666 E0.00476
G1 X122.750 Y87.885 E0.02252
G1 X122.911 Y87.972 E0.00852
G1 X123.272 Y88.169 E0.01900
G1 X123.544 Y88.328 E0.01464
G1 X123.796 Y88.476 E0.01351
G1 X123.874 Y88.524 E0.00422
G1 X124.315 Y88.801 E0.02414
G1 X124.445 Y88.889 E0.00727
G1 X124.840 Y89.155 E0.02206
G1 X125.169 Y89.391 E0.01878
G1 X125.307 Y89.490 E0.00788
G1 X125.349 Y89.521 E0.00238
G1 X125.382 Y89.545 E0.00191
G1 X125.836 Y89.893 E0.02649
G1 X125.867 Y89.918 E0.00187
G1 X126.316 Y90.284 E0.02681
G1 X126.348 Y90.311 E0.00194
G1 X126.843 Y90.739 E0.03029
G1 X126.920 Y90.809 E0.00483
G1 X127.289 Y91.148 E0.02320
G1 X127.337 Y91.193 E0.00303
G1 X127.585 Y91.436 E0.01610
G1 X127.818 Y91.662 E0.01506
G1 X128.258 Y92.115 E0.02923
G1 X128.285 Y92.144 E0.00181
G1 X128.705 Y92.602 E0.02882
G1 X128.741 Y92.642 E0.00250
G1 X129.186 Y93.156 E0.03149
G1 X129.274 Y93.263 E0.00641
G1 X129.633 Y93.701 E0.02621
G1 X129.688 Y93.771 E0.00415
G1 X130.036 Y94.221 E0.02633
G1 X130.380 Y94.690 E0.02693
G1 X130.484 Y94.830 E0.00813
G1 X130.498 Y94.849 E0.00108
G1 X130.915 Y95.453 E0.03399
G1 X130.973 Y95.539 E0.00481
G1 X131.288 Y96.021 E0.02665
G1 X131.596 Y96.520 E0.02716
G1 X131.698 Y96.683 E0.00893
G1 X131.712 Y96.706 E0.00123
G1 X131.799 Y96.857 E0.00809
G1 X132.095 Y97.364 E0.02717
G1 X132.149 Y97.462 E0.00519
G1 X132.433 Y97.979 E0.02734
G1 X132.708 Y98.513 E0.02780
G1 X132.805 Y98.698 E0.00969
G1 X132.818 Y98.724 E0.00136
G1 X133.152 Y99.413 E0.03545
G1 X133.480 Y100.134 E0.03669
G1 X133.527 Y100.243 E0.00549
G1 X133.767 Y100.807 E0.02838
G1 X133.997 Y101.386 E0.02887
G1 X134.081 Y101.593 E0.01034
G1 X134.092 Y101.621 E0.00143
G1 X134.376 Y102.388 E0.03784
G1 X134.416 Y102.504 E0.00568
G1 X134.620 Y103.099 E0.02916
G1 X134.813 Y103.708 E0.02957
G1 X134.881 Y103.919 E0.01029
G1 X134.891 Y103.950 E0.00149
G1 X134.945 Y104.137 E0.00904
G1 X135.124 Y104.754 E0.02976
G1 X135.157 Y104.876 E0.00582
G1 X135.323 Y105.498 E0.02984
G1 X135.476 Y106.132 E0.03020
G1 X135.529 Y106.350 E0.01040
G1 X135.537 Y106.382 E0.00154
G1 X135.579 Y106.577 E0.00921
G1 X135.718 Y107.217 E0.03036
G1 X135.743 Y107.343 E0.00593
G1 X135.867 Y107.987 E0.03040
G1 X135.978 Y108.640 E0.03070
G1 X136.017 Y108.864 E0.01052
G1 X136.022 Y108.898 E0.00158
G1 X136.051 Y109.097 E0.00934
G1 X136.148 Y109.755 E0.03081
G1 X136.164 Y109.884 E0.00600
G1 X136.245 Y110.544 E0.03081
G1 X136.313 Y111.211 E0.03106
G1 X136.337 Y111.439 E0.01061
G1 X136.340 Y111.474 E0.00162
G1 X136.402 Y112.275 E0.03721
G1 X136.446 Y113.075 E0.03715
G1 X136.473 Y113.887 E0.03760
G1 X136.483 Y114.221 E0.01550
G1 X136.492 Y115.026 E0.03729
G1 X136.484 Y115.749 E0.03348
G1 X136.460 Y116.518 E0.03565
G1 X136.459 Y116.549 E0.00144
G1 X136.446 Y116.767 E0.01009
G1 X136.415 Y117.374 E0.02815
G1 X136.372 Y117.975 E0.02794
G1 X136.364 Y118.092 E0.00540
G1 X136.292 Y118.873 E0.03637
G1 X136.288 Y118.904 E0.00141
G1 X136.263 Y119.121 E0.01015
G1 X136.195 Y119.722 E0.02802
G1 X136.116 Y120.316 E0.02773
G1 X136.100 Y120.430 E0.00534
G1 X136.000 Y121.084 E0.03066
G1 X135.982 Y121.198 E0.00532
G1 X135.851 Y121.942 E0.03500
G1 X135.846 Y121.971 E0.00138
G1 X135.803 Y122.186 E0.01014
G1 X135.688 Y122.771 E0.02764
G1 X135.562 Y123.348 E0.02732
G1 X135.538 Y123.458 E0.00523
G1 X135.386 Y124.091 E0.03014
G1 X135.360 Y124.200 E0.00520
G1 X135.172 Y124.916 E0.03432
G1 X135.164 Y124.944 E0.00134
G1 X135.107 Y125.143 E0.00959
G1 X134.947 Y125.705 E0.02707
G1 X134.777 Y126.257 E0.02672
