; generated by SuperSlicer 2.3.56 on 2021-11-07 at 17:07:56 UTC

; 

; external perimeters extrusion width = 0.60mm
; perimeters extrusion width = 0.60mm
; infill extrusion width = 0.60mm
; solid infill extrusion width = 0.60mm
; top infill extrusion width = 0.60mm
; support material extrusion width = 0.60mm
; first layer extrusion width = 0.60mm


;TYPE:Custom
M83						; extruder relative mode
G28 					                ; home all axes
M109 S205                                           ; hotend temperature
M140 S60 	                                ; heatbed temperature
ROUGE
M190 S60 	                                ; wait for the bed to heat up
M109 S205                                            ; wait for the extruder to heat up
VERT
FULL
G92 E0 					                ; reset extruder
G1 X20 Y5 Z0.3 F5000.0				; move to start-line position
G1 Z0.3 F1000 				                 ; print height
G1 X200 Y5 F1500.0 E15 				 ; draw 1st line
G1 X200 Y5.3 Z0.3 F5000.0				; move to side a little
G1 X5.3  Y5.3 Z0.3 F1500.0 E30 			; draw 2nd line
G1 Z3 F3000 					; move z up little to prevent scratching of surface
M107
G21 ; set units to millimeters
G90 ; use absolute coordinates
M83 ; use relative distances for extrusion
; Filament gcode
;LAYER_CHANGE
;Z:0.2
;HEIGHT:0.2
G1 Z0.200000 F6600
G1 E-2.35000 F3600
G1 Z0.800000 F6600
G1 X97.725 Y76.129
G1 Z0.200000
G1 E2.35000 F3600
;TYPE:Skirt
;WIDTH:0.6
G1 F1200
G1 X98.479 Y75.345 E0.05037
G1 X99.442 Y74.840 E0.05037
G1 X100.520 Y74.666 E0.05058
G1 X129.741 Y74.927 E1.35359
G1 X130.679 Y75.134 E0.04454
G1 X131.522 Y75.597 E0.04454
G1 X132.201 Y76.278 E0.04454
G1 X132.660 Y77.117 E0.04433
G1 X139.879 Y106.365 E1.39544
G1 X140.347 Y109.111 E0.12904
G1 X140.567 Y111.041 E0.08994
G1 X140.699 Y113.005 E0.09120
G1 X140.733 Y115.867 E0.13261
G1 X140.511 Y119.400 E0.16395
G1 X139.843 Y123.677 E0.20052
G1 X132.769 Y152.662 E1.38205
G1 X132.474 Y153.419 E0.03764
G1 X132.010 Y154.081 E0.03743
G1 X131.399 Y154.616 E0.03764
G1 X130.678 Y154.991 E0.03764
G1 X129.480 Y155.208 E0.05639
G1 X100.287 Y154.950 E1.35233
G1 X99.342 Y154.748 E0.04475
G1 X98.489 Y154.286 E0.04495
G1 X97.804 Y153.604 E0.04475
G1 X97.340 Y152.757 E0.04475
G1 X90.177 Y123.772 E1.38303
G1 X89.684 Y120.986 E0.13105
G1 X89.381 Y118.198 E0.12990
G1 X89.261 Y115.324 E0.13323
G1 X89.288 Y113.312 E0.09325
G1 X89.653 Y109.105 E0.19559
G1 X90.281 Y105.623 E0.16387
G1 X97.258 Y77.111 E1.35970
G1 X97.687 Y76.210 E0.04620
G1 X98.170 Y76.465 F6600
G1 F1200
G1 X98.803 Y75.799 E0.04259
G1 X99.613 Y75.371 E0.04240
G1 X100.520 Y75.223 E0.04259
G1 X129.671 Y75.480 E1.35034
G1 X130.462 Y75.648 E0.03745
G1 X131.173 Y76.032 E0.03745
G1 X131.747 Y76.601 E0.03745
G1 X132.136 Y77.305 E0.03726
G1 X139.334 Y106.479 E1.39190
G1 X139.796 Y109.193 E0.12750
G1 X140.012 Y111.089 E0.08841
G1 X140.142 Y113.021 E0.08970
G1 X140.176 Y115.841 E0.13061
G1 X139.957 Y119.337 E0.16227
G1 X139.298 Y123.560 E0.19798
G1 X132.234 Y152.506 E1.38019
G1 X131.991 Y153.142 E0.03153
G1 X131.602 Y153.701 E0.03153
G1 X131.092 Y154.151 E0.03153
G1 X130.485 Y154.469 E0.03172
G1 X129.476 Y154.651 E0.04753
G1 X100.350 Y154.396 E1.34919
G1 X99.554 Y154.233 E0.03764
G1 X98.837 Y153.850 E0.03764
G1 X98.258 Y153.280 E0.03764
G1 X97.864 Y152.569 E0.03764
G1 X90.723 Y123.661 E1.37931
G1 X90.235 Y120.906 E0.12960
G1 X89.936 Y118.150 E0.12841
G1 X89.818 Y115.318 E0.13134
G1 X89.844 Y113.351 E0.09110
G1 X90.206 Y109.176 E0.19412
G1 X90.824 Y105.746 E0.16145
G1 X97.785 Y77.296 E1.35671
G1 X98.132 Y76.547 E0.03823
G1 X98.623 Y76.790 F6600
G1 F1200
G1 X99.131 Y76.249 E0.03439
G1 X99.787 Y75.900 E0.03439
G1 X100.520 Y75.780 E0.03439
G1 X129.608 Y76.034 E1.34747
G1 X130.249 Y76.163 E0.03030
G1 X130.828 Y76.469 E0.03030
G1 X131.295 Y76.927 E0.03030
G1 X131.613 Y77.498 E0.03030
G1 X138.788 Y106.593 E1.38810
G1 X139.245 Y109.274 E0.12597
G1 X139.457 Y111.138 E0.08690
G1 X139.585 Y113.042 E0.08840
G1 X139.619 Y115.820 E0.12870
G1 X139.304 Y120.143 E0.20075
G1 X138.934 Y122.528 E0.11183
G1 X138.405 Y124.963 E0.11540
G1 X131.678 Y152.430 E1.30990
G1 X131.476 Y152.922 E0.02465
G1 X131.165 Y153.354 E0.02465
G1 X130.763 Y153.702 E0.02465
G1 X130.294 Y153.945 E0.02447
G1 X129.477 Y154.094 E0.03848
G1 X100.403 Y153.841 E1.34679
G1 X99.758 Y153.714 E0.03047
G1 X99.175 Y153.408 E0.03047
G1 X98.705 Y152.948 E0.03047
G1 X98.387 Y152.376 E0.03030
G1 X91.269 Y123.551 E1.37536
G1 X90.787 Y120.827 E0.12813
G1 X90.491 Y118.103 E0.12693
G1 X90.375 Y115.306 E0.12966
G1 X90.400 Y113.386 E0.08893
G1 X90.758 Y109.247 E0.19248
G1 X91.368 Y105.864 E0.15924
G1 X98.316 Y77.466 E1.35420
G1 X98.586 Y76.872 E0.03023
;WIPE_START
G1 F5280
G1 X99.131 Y76.249 E-0.53648
G1 X99.787 Y75.900 E-0.48095
G1 X100.520 Y75.780 E-0.48095
G1 X101.653 Y75.790 E-0.73412
;WIPE_END
G1 E-0.11750 F3600
G1 Z0.800000 F6600
G1 X98.586 Y76.872
G1 X98.586 Y76.872
G1 X129.484 Y151.816
G1 Z0.200000
G1 E2.35000 F3600
;TYPE:Support material
G1 F1200
G1 X129.484 Y138.532 E0.61534
G1 X129.442 Y138.578 E0.00291
G1 X129.073 Y138.965 E0.02475
G1 X128.994 Y139.047 E0.00529
G1 X128.965 Y139.077 E0.00194
G1 X128.826 Y139.213 E0.00901
G1 X128.494 Y139.543 E0.02167
G1 X128.370 Y139.661 E0.00793
G1 X128.370 Y151.565 E0.55142
G1 X127.256 Y151.565 E0.05161
G1 X127.256 Y140.657 E0.50527
G1 X127.168 Y140.732 E0.00536
G1 X127.134 Y140.760 E0.00203
G1 X127.093 Y140.794 E0.00247
G1 X126.675 Y141.130 E0.02485
G1 X126.631 Y141.164 E0.00257
G1 X126.211 Y141.484 E0.02445
G1 X126.170 Y141.515 E0.00239
G1 X126.142 Y141.535 E0.00162
G1 X126.142 Y151.565 E0.46459
G1 X125.027 Y151.565 E0.05161
G1 X125.027 Y142.303 E0.42904
G1 X124.756 Y142.476 E0.01491
G1 X124.682 Y142.523 E0.00407
G1 X124.574 Y142.588 E0.00585
G1 X124.197 Y142.813 E0.02034
G1 X123.913 Y142.972 E0.01505
G1 X123.913 Y151.565 E0.39805
G1 X122.799 Y151.565 E0.05161
G1 X122.799 Y143.550 E0.37125
G1 X122.625 Y143.635 E0.00895
G1 X122.278 Y143.791 E0.01765
G1 X122.106 Y143.868 E0.00873
G1 X121.685 Y144.043 E0.02112
G1 X121.685 Y151.565 E0.34842
G1 X120.571 Y151.565 E0.05161
G1 X120.571 Y144.453 E0.32942
G1 X120.548 Y144.461 E0.00111
G1 X120.114 Y144.598 E0.02110
G1 X119.959 Y144.644 E0.00747
G1 X119.515 Y144.769 E0.02136
G1 X119.457 Y144.784 E0.00280
G1 X119.457 Y151.565 E0.31412
G1 X118.342 Y151.565 E0.05161
G1 X118.342 Y145.038 E0.30233
G1 X117.886 Y145.122 E0.02149
G1 X117.356 Y145.203 E0.02483
G1 X117.228 Y145.219 E0.00596
G1 X117.228 Y151.565 E0.29398
G1 X116.114 Y151.565 E0.05161
G1 X116.114 Y145.326 E0.28899
G1 X115.761 Y145.347 E0.01640
G1 X115.728 Y145.348 E0.00153
G1 X115.377 Y145.360 E0.01626
G1 X115.349 Y145.360 E0.00128
G1 X115.000 Y145.364 E0.01617
G1 X115.000 Y151.565 E0.28725
G1 X113.886 Y151.565 E0.05161
G1 X113.886 Y145.327 E0.28897
G1 X113.812 Y145.323 E0.00345
G1 X113.776 Y145.320 E0.00165
G1 X113.217 Y145.272 E0.02600
G1 X113.181 Y145.268 E0.00166
G1 X112.772 Y145.218 E0.01910
G1 X112.772 Y151.565 E0.29400
G1 X111.658 Y151.565 E0.05161
G1 X111.658 Y145.036 E0.30246
G1 X111.372 Y144.980 E0.01349
G1 X111.303 Y144.965 E0.00325
G1 X110.819 Y144.854 E0.02302
G1 X110.543 Y144.782 E0.01318
G1 X110.543 Y151.565 E0.31419
G1 X109.429 Y151.565 E0.05161
G1 X109.429 Y144.452 E0.32951
G1 X109.075 Y144.332 E0.01733
G1 X108.918 Y144.274 E0.00775
G1 X108.484 Y144.112 E0.02144
G1 X108.315 Y144.042 E0.00848
G1 X108.315 Y151.565 E0.34847
G1 X107.201 Y151.565 E0.05161
G1 X107.201 Y143.551 E0.37122
G1 X106.792 Y143.350 E0.02112
G1 X106.691 Y143.298 E0.00524
G1 X106.221 Y143.049 E0.02465
G1 X106.109 Y142.986 E0.00596
G1 X106.087 Y142.973 E0.00118
G1 X106.087 Y151.565 E0.39799
G1 X104.973 Y151.565 E0.05161
G1 X104.973 Y142.303 E0.42904
G1 X104.512 Y141.999 E0.02555
G1 X104.169 Y141.758 E0.01945
G1 X104.026 Y141.657 E0.00808
G1 X103.967 Y141.615 E0.00336
G1 X103.921 Y141.581 E0.00263
G1 X103.858 Y141.534 E0.00365
G1 X103.858 Y151.565 E0.46465
G1 X102.744 Y151.565 E0.05161
G1 X102.744 Y140.656 E0.50531
G1 X102.376 Y140.344 E0.02236
G1 X102.280 Y140.258 E0.00599
G1 X101.900 Y139.916 E0.02365
G1 X101.630 Y139.658 E0.01731
G1 X101.630 Y151.565 E0.55154
G1 X100.516 Y151.565 E0.05161
G1 X100.516 Y138.161 E0.62091
;WIPE_START
G1 F5280
G1 X100.516 Y141.607 E-2.23250
;WIPE_END
G1 E-0.11750 F3600
G1 Z0.400000 F6600
G1 X100.516 Y138.161
G1 X100.516 Y138.161
G1 X129.484 Y91.712
G1 Z0.200000
G1 E2.35000 F3600
G1 F1200
G1 X129.484 Y78.309 E0.62081
G1 X128.370 Y78.309 E0.05161
G1 X128.370 Y90.211 E0.55127
G1 X128.267 Y90.110 E0.00667
G1 X127.889 Y89.763 E0.02376
G1 X127.798 Y89.681 E0.00568
G1 X127.277 Y89.229 E0.03194
G1 X127.256 Y89.212 E0.00128
G1 X127.256 Y78.309 E0.50501
G1 X126.142 Y78.309 E0.05161
G1 X126.142 Y88.336 E0.46442
G1 X126.006 Y88.239 E0.00772
G1 X125.657 Y87.987 E0.01993
G1 X125.246 Y87.711 E0.02294
G1 X125.100 Y87.613 E0.00813
G1 X125.027 Y87.567 E0.00400
G1 X125.027 Y78.309 E0.42882
G1 X123.913 Y78.309 E0.05161
G1 X123.913 Y86.897 E0.39778
G1 X123.596 Y86.724 E0.01672
G1 X123.410 Y86.624 E0.00979
G1 X122.959 Y86.396 E0.02343
G1 X122.849 Y86.342 E0.00568
G1 X122.799 Y86.319 E0.00254
G1 X122.799 Y78.309 E0.37099
G1 X121.685 Y78.309 E0.05161
G1 X121.685 Y85.827 E0.34821
G1 X121.629 Y85.805 E0.00280
G1 X121.141 Y85.616 E0.02420
G1 X120.986 Y85.562 E0.00763
G1 X120.571 Y85.417 E0.02037
G1 X120.571 Y78.309 E0.32923
G1 X119.457 Y78.309 E0.05161
G1 X119.457 Y85.087 E0.31394
G1 X119.389 Y85.069 E0.00323
G1 X118.861 Y84.942 E0.02518
G1 X118.789 Y84.924 E0.00344
G1 X118.342 Y84.833 E0.02110
G1 X118.342 Y78.309 E0.30218
G1 X117.228 Y78.309 E0.05161
G1 X117.228 Y84.653 E0.29383
G1 X117.009 Y84.624 E0.01024
G1 X116.978 Y84.620 E0.00147
G1 X116.415 Y84.565 E0.02620
G1 X116.379 Y84.562 E0.00166
G1 X116.114 Y84.545 E0.01230
G1 X116.114 Y78.309 E0.28883
G1 X115.000 Y78.309 E0.05161
G1 X115.000 Y84.508 E0.28715
G1 X114.685 Y84.510 E0.01461
G1 X114.648 Y84.510 E0.00169
G1 X114.139 Y84.528 E0.02358
G1 X114.107 Y84.530 E0.00152
G1 X113.886 Y84.544 E0.01024
G1 X113.886 Y78.309 E0.28881
G1 X112.772 Y78.309 E0.05161
G1 X112.772 Y84.652 E0.29381
G1 X112.515 Y84.686 E0.01201
G1 X112.487 Y84.690 E0.00131
G1 X111.982 Y84.771 E0.02370
G1 X111.658 Y84.833 E0.01529
G1 X111.658 Y78.309 E0.30218
G1 X110.543 Y78.309 E0.05161
G1 X110.543 Y85.087 E0.31396
G1 X110.385 Y85.128 E0.00757
G1 X110.294 Y85.154 E0.00439
G1 X109.857 Y85.281 E0.02109
G1 X109.713 Y85.327 E0.00701
G1 X109.429 Y85.418 E0.01379
G1 X109.429 Y78.309 E0.32928
G1 X108.315 Y78.309 E0.05161
G1 X108.315 Y85.827 E0.34821
G1 X108.246 Y85.854 E0.00344
G1 X108.131 Y85.903 E0.00579
G1 X107.743 Y86.068 E0.01951
G1 X107.349 Y86.249 E0.02010
G1 X107.201 Y86.318 E0.00756
G1 X107.201 Y78.309 E0.37095
G1 X106.087 Y78.309 E0.05161
G1 X106.087 Y86.897 E0.39779
G1 X105.690 Y87.123 E0.02114
G1 X105.542 Y87.214 E0.00803
G1 X105.167 Y87.442 E0.02035
G1 X104.973 Y87.568 E0.01073
G1 X104.973 Y78.309 E0.42885
G1 X103.858 Y78.309 E0.05161
G1 X103.858 Y88.337 E0.46449
G1 X103.831 Y88.357 E0.00160
G1 X103.762 Y88.407 E0.00392
G1 X103.713 Y88.443 E0.00283
G1 X103.668 Y88.477 E0.00262
G1 X103.246 Y88.803 E0.02469
G1 X103.200 Y88.839 E0.00270
G1 X103.139 Y88.889 E0.00366
G1 X102.744 Y89.212 E0.02361
G1 X102.744 Y78.309 E0.50500
G1 X101.630 Y78.309 E0.05161
G1 X101.630 Y90.212 E0.55132
G1 X101.502 Y90.334 E0.00821
G1 X101.365 Y90.464 E0.00876
G1 X101.334 Y90.494 E0.00197
G1 X100.895 Y90.937 E0.02893
G1 X100.816 Y91.020 E0.00531
G1 X100.516 Y91.340 E0.02029
G1 X100.516 Y78.059 E0.61518
;WIPE_START
G1 F5280
G1 X100.516 Y81.505 E-2.23250
;WIPE_END
G1 E-0.11750 F3600
G1 Z0.400000 F6600
G1 X100.516 Y78.059
G1 X100.516 Y78.059
G1 X106.424 Y88.358
G1 Z0.200000
G1 E2.35000 F3600
;TYPE:Internal perimeter
G1 F1200
G1 X106.825 Y88.129 E0.02142
G1 X106.904 Y88.084 E0.00419
G1 X107.307 Y87.870 E0.02113
G1 X107.420 Y87.811 E0.00591
G1 X107.824 Y87.611 E0.02089
G1 X107.950 Y87.553 E0.00642
G1 X108.320 Y87.383 E0.01885
G1 X108.693 Y87.224 E0.01878
G1 X108.795 Y87.181 E0.00512
G1 X108.895 Y87.141 E0.00498
G1 X109.268 Y86.996 E0.01857
G1 X109.401 Y86.948 E0.00653
G1 X109.776 Y86.815 E0.01842
G1 X110.152 Y86.693 E0.01831
G1 X110.271 Y86.655 E0.00581
G1 X110.689 Y86.534 E0.02015
G1 X110.763 Y86.513 E0.00357
G1 X111.173 Y86.408 E0.01959
G1 X111.599 Y86.312 E0.02023
G1 X111.738 Y86.280 E0.00659
G1 X112.227 Y86.186 E0.02306
G1 X112.718 Y86.107 E0.02307
G1 X113.202 Y86.044 E0.02261
G1 X113.706 Y85.995 E0.02347
G1 X114.191 Y85.963 E0.02251
G1 X114.686 Y85.945 E0.02293
G1 X115.182 Y85.943 E0.02296
G1 X115.730 Y85.959 E0.02543
G1 X116.278 Y85.994 E0.02541
G1 X116.831 Y86.048 E0.02575
G1 X117.378 Y86.121 E0.02554
G1 X117.923 Y86.213 E0.02563
G1 X118.466 Y86.323 E0.02563
G1 X118.520 Y86.337 E0.00260
G1 X119.037 Y86.460 E0.02460
G1 X119.539 Y86.599 E0.02413
G1 X119.679 Y86.642 E0.00679
G1 X120.096 Y86.772 E0.02024
G1 X120.512 Y86.917 E0.02039
G1 X120.649 Y86.965 E0.00674
G1 X121.107 Y87.142 E0.02273
G1 X121.184 Y87.172 E0.00385
G1 X121.684 Y87.385 E0.02515
G1 X121.719 Y87.400 E0.00178
G1 X122.224 Y87.634 E0.02576
G1 X122.316 Y87.680 E0.00476
G1 X122.750 Y87.899 E0.02251
G1 X122.912 Y87.986 E0.00852
G1 X123.272 Y88.182 E0.01900
G1 X123.544 Y88.342 E0.01463
G1 X123.796 Y88.489 E0.01352
G1 X123.874 Y88.537 E0.00422
G1 X124.315 Y88.815 E0.02413
G1 X124.445 Y88.902 E0.00727
G1 X124.840 Y89.168 E0.02205
G1 X125.169 Y89.405 E0.01877
G1 X125.307 Y89.504 E0.00789
G1 X125.349 Y89.534 E0.00238
G1 X125.382 Y89.559 E0.00192
G1 X125.836 Y89.907 E0.02649
G1 X125.868 Y89.932 E0.00187
G1 X126.316 Y90.298 E0.02680
G1 X126.348 Y90.324 E0.00195
G1 X126.843 Y90.752 E0.03029
G1 X126.920 Y90.823 E0.00484
G1 X127.283 Y91.156 E0.02283
G1 X127.644 Y91.508 E0.02335
G1 X127.790 Y91.648 E0.00937
G1 X127.806 Y91.664 E0.00104
G1 X127.920 Y91.781 E0.00754
G1 X128.280 Y92.153 E0.02399
G1 X128.351 Y92.229 E0.00481
G1 X128.703 Y92.613 E0.02413
G1 X129.051 Y93.015 E0.02462
G1 X129.182 Y93.164 E0.00921
G1 X129.198 Y93.183 E0.00114
G1 X129.634 Y93.716 E0.03188
G1 X129.736 Y93.847 E0.00770
G1 X130.071 Y94.280 E0.02535
G1 X130.135 Y94.367 E0.00502
G1 X130.460 Y94.810 E0.02548
G1 X130.780 Y95.272 E0.02602
G1 X130.899 Y95.442 E0.00963
G1 X130.914 Y95.464 E0.00122
G1 X131.321 Y96.086 E0.03441
G1 X131.380 Y96.181 E0.00521
G1 X131.680 Y96.668 E0.02649
G1 X131.973 Y97.171 E0.02697
G1 X132.079 Y97.349 E0.00959
G1 X132.093 Y97.374 E0.00130
G1 X132.180 Y97.533 E0.00840
G1 X132.463 Y98.049 E0.02727
G1 X132.517 Y98.152 E0.00540
G1 X132.788 Y98.678 E0.02742
G1 X133.051 Y99.220 E0.02787
G1 X133.146 Y99.414 E0.01005
G1 X133.159 Y99.442 E0.00141
G1 X133.480 Y100.146 E0.03581
G1 X133.793 Y100.882 E0.03706
G1 X133.839 Y100.995 E0.00564
G1 X134.066 Y101.567 E0.02852
G1 X134.283 Y102.153 E0.02898
G1 X134.363 Y102.368 E0.01060
G1 X134.374 Y102.398 E0.00148
G1 X134.642 Y103.177 E0.03817
G1 X134.680 Y103.296 E0.00581
G1 X134.871 Y103.899 E0.02928
G1 X135.050 Y104.514 E0.02966
G1 X135.114 Y104.732 E0.01052
G1 X135.123 Y104.763 E0.00154
G1 X135.174 Y104.956 E0.00923
G1 X135.340 Y105.579 E0.02985
G1 X135.371 Y105.703 E0.00595
G1 X135.522 Y106.331 E0.02991
G1 X135.661 Y106.969 E0.03024
G1 X135.710 Y107.193 E0.01062
G1 X135.717 Y107.226 E0.00159
G1 X135.756 Y107.426 E0.00940
G1 X135.880 Y108.070 E0.03038
G1 X135.902 Y108.198 E0.00606
G1 X136.012 Y108.845 E0.03040
G1 X136.108 Y109.501 E0.03067
G1 X136.143 Y109.730 E0.01074
G1 X136.147 Y109.765 E0.00162
G1 X136.172 Y109.969 E0.00953
G1 X136.254 Y110.628 E0.03077
G1 X136.267 Y110.760 E0.00613
G1 X136.334 Y111.420 E0.03074
G1 X136.386 Y112.086 E0.03096
G1 X136.405 Y112.319 E0.01084
G1 X136.407 Y112.355 E0.00166
G1 X136.452 Y113.157 E0.03722
G1 X136.478 Y113.962 E0.03731
G1 X136.483 Y114.233 E0.01253
G1 X136.492 Y115.041 E0.03745
G1 X136.484 Y115.763 E0.03342
G1 X136.460 Y116.532 E0.03564
G1 X136.459 Y116.564 E0.00149
G1 X136.446 Y116.786 E0.01032
G1 X136.415 Y117.389 E0.02795
G1 X136.373 Y117.986 E0.02774
G1 X136.364 Y118.105 E0.00554
G1 X136.292 Y118.887 E0.03637
G1 X136.288 Y118.918 E0.00146
G1 X136.262 Y119.141 E0.01040
G1 X136.195 Y119.738 E0.02781
G1 X136.117 Y120.327 E0.02751
G1 X136.100 Y120.444 E0.00549
G1 X136.000 Y121.095 E0.03051
G1 X135.982 Y121.212 E0.00547
G1 X135.852 Y121.956 E0.03498
G1 X135.846 Y121.986 E0.00143
